;FLAVOR:Marlin
;TIME:2102
;Filament used: 1.46045m
;Layer height: 0.2
;MINX:101.847
;MINY:90.2
;MINZ:0.2
;MAXX:118.164
;MAXY:129.8
;MAXZ:15
;Generated with Cura_SteamEngine 4.12.0
M140 S55
M105
M190 S55
M104 S195
M105
M109 S195
M82 ;absolute extrusion mode
; Ender 3 Custom Start G-code
G92 E0 ; Reset Extruder
G28 ; Home all axes
G1 Z2.0 F3000 ; Move Z Axis up little to prevent scratching of Heat Bed
G1 X0.1 Y20 Z0.3 F5000.0 ; Move to start position
G1 X0.1 Y200.0 Z0.3 F1500.0 E15 ; Draw the first line
G1 X0.4 Y200.0 Z0.3 F5000.0 ; Move to side a little
G1 X0.4 Y20 Z0.3 F1500.0 E30 ; Draw the second line
G92 E0 ; Reset Extruder
G1 Z2.0 F3000 ; Move Z Axis up little to prevent scratching of Heat Bed
G1 X5 Y20 Z0.3 F5000.0 ; Move over to prevent blob squish
G92 E0
G92 E0
G1 F1500 E-5
;LAYER_COUNT:75
;LAYER:0
M107
;MESH:Japanese_ChopSticksHolder.stl
G0 F6000 X105.175 Y128.97 Z0.2
;TYPE:WALL-INNER
G1 F1500 E0
G1 F1200 X104.843 Y128.885 E0.0114
G1 X104.556 Y128.759 E0.02182
G1 X104.268 Y128.571 E0.03326
G1 X104.034 Y128.355 E0.04385
G1 X103.823 Y128.083 E0.0553
G1 X103.672 Y127.803 E0.06588
G1 X103.561 Y127.476 E0.07737
G1 X103.508 Y127.166 E0.08783
G1 X103.5 Y126.943 E0.09525
G1 X103.5 Y93.044 E1.22274
G1 X103.53 Y92.675 E1.23505
G1 X103.616 Y92.337 E1.24665
G1 X103.74 Y92.056 E1.25687
G1 X103.923 Y91.775 E1.26802
G1 X104.15 Y91.528 E1.27918
G1 X104.411 Y91.326 E1.29016
G1 X104.697 Y91.172 E1.30096
G1 X105.016 Y91.063 E1.31217
G1 X105.336 Y91.008 E1.32297
G1 X105.532 Y91.001 E1.32949
G1 X114.456 Y91 E1.62631
G1 X114.827 Y91.03 E1.63869
G1 X115.157 Y91.114 E1.65001
G1 X115.446 Y91.241 E1.66051
G1 X115.725 Y91.423 E1.67159
G1 X115.966 Y91.645 E1.68249
G1 X116.177 Y91.917 E1.69394
G1 X116.33 Y92.201 E1.70467
G1 X116.438 Y92.513 E1.71565
G1 X116.492 Y92.832 E1.72641
G1 X116.5 Y93.057 E1.7339
G1 X116.5 Y126.956 E2.86138
G1 X116.47 Y127.327 E2.87376
G1 X116.386 Y127.657 E2.88509
G1 X116.259 Y127.946 E2.89559
G1 X116.077 Y128.225 E2.90667
G1 X115.855 Y128.466 E2.91757
G1 X115.583 Y128.677 E2.92902
G1 X115.303 Y128.828 E2.9396
G1 X114.984 Y128.937 E2.95081
G1 X114.664 Y128.992 E2.96161
G1 X114.46 Y129 E2.9684
G1 X105.544 Y129 E3.26495
G1 X105.175 Y128.97 E3.27726
G0 F6000 X105.112 Y129.367
G1 F1200 X104.711 Y129.264 E3.29103
G1 X104.363 Y129.111 E3.30367
G1 X104.023 Y128.889 E3.31718
G1 X103.736 Y128.624 E3.33017
G1 X103.488 Y128.305 E3.34361
G1 X103.303 Y127.962 E3.35657
G1 X103.173 Y127.579 E3.37003
G1 X103.109 Y127.202 E3.38274
G1 X103.1 Y126.943 E3.39136
G1 X103.1 Y93.025 E4.51948
G1 X103.133 Y92.612 E4.53326
G1 X103.237 Y92.208 E4.54714
G1 X103.389 Y91.861 E4.55974
G1 X103.605 Y91.53 E4.57288
G1 X103.879 Y91.232 E4.58635
G1 X104.193 Y90.989 E4.59955
G1 X104.538 Y90.803 E4.61259
G1 X104.913 Y90.675 E4.62577
G1 X105.299 Y90.609 E4.63879
G1 X105.517 Y90.601 E4.64605
G1 X114.475 Y90.6 E4.94399
G1 X114.888 Y90.633 E4.95777
G1 X115.29 Y90.736 E4.97158
G1 X115.639 Y90.889 E4.98425
G1 X115.97 Y91.105 E4.9974
G1 X116.264 Y91.376 E5.01069
G1 X116.512 Y91.695 E5.02413
G1 X116.697 Y92.038 E5.0371
G1 X116.826 Y92.413 E5.05028
G1 X116.891 Y92.796 E5.06321
G1 X116.9 Y93.057 E5.07189
G1 X116.9 Y126.975 E6.20001
G1 X116.867 Y127.388 E6.21379
G1 X116.764 Y127.79 E6.22759
G1 X116.611 Y128.139 E6.24027
G1 X116.395 Y128.47 E6.25341
G1 X116.124 Y128.764 E6.26671
G1 X115.805 Y129.012 E6.28015
G1 X115.462 Y129.197 E6.29311
G1 X115.087 Y129.325 E6.30629
G1 X114.701 Y129.391 E6.31932
G1 X114.476 Y129.4 E6.32681
G1 X105.525 Y129.4 E6.62452
G1 X105.112 Y129.367 E6.6383
G0 F6000 X105.045 Y129.763
;TYPE:WALL-OUTER
G1 F1200 X104.583 Y129.645 E6.65416
G1 X104.17 Y129.463 E6.66917
G1 X103.778 Y129.207 E6.68474
G1 X103.438 Y128.893 E6.70013
G1 X103.153 Y128.527 E6.71556
G1 X102.934 Y128.12 E6.73093
G1 X102.785 Y127.682 E6.74632
G1 X102.71 Y127.237 E6.76133
G1 X102.7 Y126.943 E6.77111
G1 X102.7 Y93.005 E7.8999
G1 X102.737 Y92.545 E7.91525
G1 X102.856 Y92.08 E7.93121
G1 X103.036 Y91.671 E7.94607
G1 X103.289 Y91.283 E7.96148
G1 X103.608 Y90.937 E7.97713
G1 X103.975 Y90.652 E7.99259
G1 X104.376 Y90.436 E8.00774
G1 X104.814 Y90.286 E8.02313
G1 X105.263 Y90.21 E8.03828
G1 X105.502 Y90.201 E8.04624
G1 X114.495 Y90.2 E8.34534
G1 X114.955 Y90.237 E8.36069
G1 X115.417 Y90.355 E8.37655
G1 X115.829 Y90.536 E8.39152
G1 X116.217 Y90.789 E8.40693
G1 X116.562 Y91.107 E8.42253
G1 X116.847 Y91.473 E8.43796
G1 X117.064 Y91.876 E8.45318
G1 X117.214 Y92.314 E8.46858
G1 X117.29 Y92.76 E8.48363
G1 X117.3 Y93.057 E8.49351
G1 X117.3 Y126.995 E9.6223
G1 X117.263 Y127.455 E9.63765
G1 X117.145 Y127.917 E9.6535
G1 X116.964 Y128.329 E9.66847
G1 X116.711 Y128.717 E9.68388
G1 X116.393 Y129.062 E9.69948
G1 X116.027 Y129.347 E9.71491
G1 X115.624 Y129.564 E9.73014
G1 X115.186 Y129.714 E9.74553
G1 X114.737 Y129.79 E9.76068
G1 X114.492 Y129.8 E9.76884
G1 X105.505 Y129.8 E10.06774
G1 X105.045 Y129.763 E10.08309
G0 F6000 X105.117 Y129.329
G0 X105.245 Y128.585
;TYPE:SKIN
G1 F1200 X104.967 Y128.514 E10.09264
G1 X104.741 Y128.415 E10.10084
G1 X104.51 Y128.264 E10.11002
G1 X104.322 Y128.09 E10.11854
G1 X104.151 Y127.869 E10.12784
G1 X104.03 Y127.646 E10.13627
G1 X103.94 Y127.38 E10.14561
G1 X103.898 Y127.13 E10.15405
G1 X103.89 Y126.943 E10.16027
G1 X103.89 Y93.044 E11.28776
G1 X103.915 Y92.744 E11.29777
G1 X103.986 Y92.465 E11.30734
G1 X104.083 Y92.243 E11.3154
G1 X104.236 Y92.01 E11.32467
G1 X104.412 Y91.818 E11.33334
G1 X104.62 Y91.656 E11.34211
G1 X104.856 Y91.531 E11.35099
G1 X105.116 Y91.441 E11.36014
G1 X105.371 Y91.398 E11.36874
G1 X105.546 Y91.391 E11.37457
G1 X114.45 Y91.39 E11.67071
G1 X114.758 Y91.415 E11.68099
G1 X115.03 Y91.484 E11.69032
G1 X115.259 Y91.585 E11.69865
G1 X115.483 Y91.731 E11.70754
G1 X115.681 Y91.913 E11.71649
G1 X115.848 Y92.129 E11.72557
G1 X115.972 Y92.358 E11.73423
G1 X116.061 Y92.615 E11.74328
G1 X116.102 Y92.864 E11.75167
G1 X116.11 Y93.057 E11.75809
G1 X116.11 Y126.956 E12.88558
G1 X116.085 Y127.258 E12.89566
G1 X116.016 Y127.53 E12.90499
G1 X115.915 Y127.759 E12.91332
G1 X115.769 Y127.983 E12.92221
G1 X115.587 Y128.181 E12.93115
G1 X115.369 Y128.349 E12.94031
G1 X115.149 Y128.468 E12.94863
G1 X114.884 Y128.559 E12.95795
G1 X114.629 Y128.602 E12.96655
G1 X114.444 Y128.61 E12.97271
G1 X105.551 Y128.61 E13.26849
G1 X105.245 Y128.585 E13.2787
G0 F6000 X105.222 Y128.862
G0 X104.37 Y128.433
G0 X104.045 Y128.074
G0 X103.651 Y127.349
G0 X104.084 Y127.277
G1 F1200 X105.22 Y128.413 E13.33213
G0 F6000 X105.822 Y128.449
G1 F1200 X104.049 Y126.676 E13.41553
G0 F6000 X104.049 Y126.111
G1 F1200 X106.387 Y128.449 E13.5255
G0 F6000 X106.953 Y128.449
G1 F1200 X104.049 Y125.545 E13.6621
G0 F6000 X104.049 Y124.979
G1 F1200 X107.519 Y128.449 E13.82532
G0 F6000 X108.084 Y128.449
G1 F1200 X104.049 Y124.414 E14.01511
G0 F6000 X104.049 Y123.848
G1 F1200 X108.65 Y128.449 E14.23153
G0 F6000 X109.216 Y128.449
G1 F1200 X104.049 Y123.282 E14.47457
G0 F6000 X104.049 Y122.716
G1 F1200 X109.781 Y128.449 E14.74421
G0 F6000 X110.347 Y128.449
G1 F1200 X104.049 Y122.151 E15.04044
G0 F6000 X104.049 Y121.585
G1 F1200 X110.913 Y128.449 E15.36331
G0 F6000 X111.478 Y128.449
G1 F1200 X104.049 Y121.019 E15.71277
G0 F6000 X104.049 Y120.454
G1 F1200 X112.044 Y128.449 E16.08883
G0 F6000 X112.61 Y128.449
G1 F1200 X104.049 Y119.888 E16.49151
G0 F6000 X104.049 Y119.322
G1 F1200 X113.175 Y128.449 E16.92079
G0 F6000 X113.741 Y128.449
G1 F1200 X104.049 Y118.757 E17.37667
G0 F6000 X104.049 Y118.191
G1 F1200 X114.307 Y128.449 E17.85918
G0 F6000 X114.829 Y128.405
G1 F1200 X104.049 Y117.625 E18.36624
G0 F6000 X104.049 Y117.06
G1 F1200 X115.23 Y128.241 E18.89216
G0 F6000 X115.545 Y127.99
G1 F1200 X104.049 Y116.494 E19.43289
G0 F6000 X104.049 Y115.928
G1 F1200 X115.783 Y127.662 E19.98483
G0 F6000 X115.925 Y127.238
G1 F1200 X104.049 Y115.363 E20.54341
G0 F6000 X104.049 Y114.797
G1 F1200 X115.949 Y126.697 E21.10315
G0 F6000 X115.949 Y126.132
G1 F1200 X104.049 Y114.231 E21.66292
G0 F6000 X104.049 Y113.666
G1 F1200 X115.949 Y125.566 E22.22265
G0 F6000 X115.949 Y125
G1 F1200 X104.049 Y113.1 E22.78239
G0 F6000 X104.049 Y112.534
G1 F1200 X115.949 Y124.435 E23.34216
G0 F6000 X115.949 Y123.869
G1 F1200 X104.049 Y111.968 E23.90192
G0 F6000 X104.049 Y111.403
G1 F1200 X115.949 Y123.303 E24.46166
G0 F6000 X115.949 Y122.738
G1 F1200 X104.049 Y110.837 E25.02142
G0 F6000 X104.049 Y110.271
G1 F1200 X115.949 Y122.172 E25.58119
G0 F6000 X115.949 Y121.606
G1 F1200 X104.049 Y109.706 E26.14093
G0 F6000 X104.049 Y109.14
G1 F1200 X115.949 Y121.041 E26.70069
G0 F6000 X115.949 Y120.475
G1 F1200 X104.049 Y108.574 E27.26045
G0 F6000 X104.049 Y108.009
G1 F1200 X115.949 Y119.909 E27.82019
G0 F6000 X115.949 Y119.344
G1 F1200 X104.049 Y107.443 E28.37995
G0 F6000 X104.049 Y106.877
G1 F1200 X115.949 Y118.778 E28.93972
G0 F6000 X115.949 Y118.212
G1 F1200 X104.049 Y106.312 E29.49946
G0 F6000 X104.049 Y105.746
G1 F1200 X115.949 Y117.647 E30.05922
G0 F6000 X115.949 Y117.081
G1 F1200 X104.049 Y105.18 E30.61898
G0 F6000 X104.049 Y104.615
G1 F1200 X115.949 Y116.515 E31.17872
G0 F6000 X115.949 Y115.949
G1 F1200 X104.049 Y104.049 E31.73846
G0 F6000 X104.049 Y103.483
G1 F1200 X115.949 Y115.384 E32.29822
G0 F6000 X115.949 Y114.818
G1 F1200 X104.049 Y102.917 E32.85799
G0 F6000 X104.049 Y102.352
G1 F1200 X115.949 Y114.252 E33.41773
G0 F6000 X115.949 Y113.687
G1 F1200 X104.049 Y101.786 E33.97749
G0 F6000 X104.049 Y101.22
G1 F1200 X115.949 Y113.121 E34.53725
G0 F6000 X115.949 Y112.555
G1 F1200 X104.049 Y100.655 E35.09699
G0 F6000 X104.049 Y100.089
G1 F1200 X115.949 Y111.99 E35.65676
G0 F6000 X115.949 Y111.424
G1 F1200 X104.049 Y99.523 E36.21652
G0 F6000 X104.049 Y98.958
G1 F1200 X115.949 Y110.858 E36.77626
G0 F6000 X115.949 Y110.293
G1 F1200 X104.049 Y98.392 E37.33602
G0 F6000 X104.049 Y97.826
G1 F1200 X115.949 Y109.727 E37.89578
G0 F6000 X115.949 Y109.161
G1 F1200 X104.049 Y97.261 E38.45552
G0 F6000 X104.049 Y96.695
G1 F1200 X115.949 Y108.596 E39.01529
G0 F6000 X115.949 Y108.03
G1 F1200 X104.049 Y96.129 E39.57505
G0 F6000 X104.049 Y95.564
G1 F1200 X115.949 Y107.464 E40.13479
G0 F6000 X115.949 Y106.898
G1 F1200 X104.049 Y94.998 E40.69453
G0 F6000 X104.049 Y94.432
G1 F1200 X115.949 Y106.333 E41.25429
G0 F6000 X115.949 Y105.767
G1 F1200 X104.049 Y93.867 E41.81403
G0 F6000 X104.049 Y93.301
G1 F1200 X115.949 Y105.201 E42.37377
G0 F6000 X115.949 Y104.636
G1 F1200 X104.074 Y92.76 E42.93236
G0 F6000 X104.216 Y92.336
G1 F1200 X115.949 Y104.07 E43.48427
G0 F6000 X115.949 Y103.504
G1 F1200 X104.453 Y92.008 E44.025
G0 F6000 X104.769 Y91.758
G1 F1200 X115.949 Y102.939 E44.5509
G0 F6000 X115.949 Y102.373
G1 F1200 X105.17 Y91.593 E45.05793
G0 F6000 X105.693 Y91.551
G1 F1200 X115.949 Y101.807 E45.54034
G0 F6000 X115.949 Y101.242
G1 F1200 X106.259 Y91.551 E45.99616
G0 F6000 X106.824 Y91.551
G1 F1200 X115.949 Y100.676 E46.42537
G0 F6000 X115.949 Y100.11
G1 F1200 X107.39 Y91.551 E46.82796
G0 F6000 X107.956 Y91.551
G1 F1200 X115.949 Y99.545 E47.20395
G0 F6000 X115.949 Y98.979
G1 F1200 X108.521 Y91.551 E47.55334
G0 F6000 X109.087 Y91.551
G1 F1200 X115.949 Y98.413 E47.8761
G0 F6000 X115.949 Y97.848
G1 F1200 X109.653 Y91.551 E48.17227
G0 F6000 X110.218 Y91.55
G1 F1200 X115.949 Y97.282 E48.44187
G0 F6000 X115.949 Y96.716
G1 F1200 X110.783 Y91.55 E48.68486
G0 F6000 X111.349 Y91.55
G1 F1200 X115.949 Y96.15 E48.90123
G0 F6000 X115.949 Y95.585
G1 F1200 X111.915 Y91.55 E49.091
G0 F6000 X112.48 Y91.55
G1 F1200 X115.949 Y95.019 E49.25417
G0 F6000 X115.949 Y94.453
G1 F1200 X113.046 Y91.55 E49.39072
G0 F6000 X113.612 Y91.55
G1 F1200 X115.949 Y93.888 E49.50067
G0 F6000 X115.949 Y93.322
G1 F1200 X114.177 Y91.55 E49.58402
G0 F6000 X114.778 Y91.585
G1 F1200 X115.916 Y92.723 E49.63754
G0 F6000 X116.647 Y92.603
G1 F1500 E44.63754
;MESH:NONMESH
G0 F300 X116.647 Y92.603 Z0.4
G0 F6000 X116.302 Y127.293
G0 X116.111 Y127.861
G0 X115.78 Y128.289
G0 X114.82 Y128.971
;TIME_ELAPSED:86.216803
;LAYER:1
M140 S50
M106 S85
;TYPE:WALL-INNER
;MESH:Japanese_ChopSticksHolder.stl
G1 F1500 E49.63754
G1 F1245 X114.453 Y129 E49.64979
G1 X105.541 Y129 E49.9462
G1 X105.168 Y128.97 E49.95865
G1 X104.852 Y128.89 E49.96949
G1 X104.695 Y128.828 E49.97511
G1 X104.409 Y128.672 E49.98594
G1 X104.141 Y128.462 E49.99726
G1 X103.914 Y128.214 E50.00845
G1 X103.747 Y127.957 E50.01864
G1 X103.615 Y127.654 E50.02963
G1 X103.529 Y127.318 E50.04117
G1 X103.5 Y126.959 E50.05315
G1 X103.5 Y93.041 E51.18127
G1 X103.53 Y92.668 E51.19371
G1 X103.612 Y92.344 E51.20483
G1 X103.667 Y92.203 E51.20986
G1 X103.831 Y91.905 E51.22118
G1 X104.037 Y91.643 E51.23226
G1 X104.291 Y91.411 E51.2437
G1 X104.548 Y91.244 E51.2539
G1 X104.845 Y91.115 E51.26467
G1 X105.182 Y91.029 E51.27623
G1 X105.535 Y91.001 E51.28801
G1 X114.459 Y91 E51.58482
G1 X114.832 Y91.03 E51.59727
G1 X115.141 Y91.108 E51.60787
G1 X115.44 Y91.236 E51.61869
G1 X115.596 Y91.329 E51.62473
G1 X115.857 Y91.535 E51.63579
G1 X116.087 Y91.787 E51.64714
G1 X116.258 Y92.051 E51.6576
G1 X116.384 Y92.34 E51.66808
G1 X116.471 Y92.682 E51.67982
G1 X116.5 Y93.041 E51.6918
G1 X116.5 Y126.959 E52.81992
G1 X116.469 Y127.336 E52.8325
G1 X116.394 Y127.639 E52.84288
G1 X116.265 Y127.938 E52.85371
G1 X116.173 Y128.092 E52.85968
G1 X115.964 Y128.357 E52.8709
G1 X115.718 Y128.582 E52.88199
G1 X115.446 Y128.759 E52.89278
G1 X115.161 Y128.884 E52.90314
G1 X114.82 Y128.971 E52.91484
G0 F7500 X114.885 Y129.367
G1 F1245 X114.472 Y129.4 E52.92862
G1 X105.521 Y129.4 E53.22633
G1 X105.103 Y129.366 E53.24028
G1 X104.731 Y129.272 E53.25304
G1 X104.528 Y129.192 E53.2603
G1 X104.185 Y129.005 E53.27329
G1 X103.87 Y128.758 E53.28661
G1 X103.596 Y128.458 E53.30012
G1 X103.394 Y128.149 E53.3124
G1 X103.234 Y127.781 E53.32575
G1 X103.133 Y127.385 E53.33934
G1 X103.1 Y126.979 E53.35289
G1 X103.1 Y93.021 E54.48233
G1 X103.134 Y92.603 E54.49628
G1 X103.229 Y92.226 E54.50921
G1 X103.306 Y92.03 E54.51622
G1 X103.496 Y91.683 E54.52938
G1 X103.745 Y91.367 E54.54276
G1 X104.041 Y91.097 E54.55608
G1 X104.359 Y90.89 E54.5687
G1 X104.718 Y90.734 E54.58172
G1 X105.115 Y90.633 E54.59535
G1 X105.515 Y90.601 E54.60869
G1 X114.479 Y90.6 E54.90684
G1 X114.897 Y90.634 E54.92079
G1 X115.269 Y90.728 E54.93355
G1 X115.624 Y90.88 E54.94639
G1 X115.817 Y90.995 E54.95386
G1 X116.132 Y91.243 E54.9672
G1 X116.403 Y91.541 E54.9806
G1 X116.613 Y91.864 E54.99341
G1 X116.764 Y92.21 E55.00597
G1 X116.867 Y92.615 E55.01986
G1 X116.9 Y93.021 E55.03341
G1 X116.9 Y126.979 E56.16286
G1 X116.866 Y127.397 E56.17681
G1 X116.774 Y127.769 E56.18955
G1 X116.62 Y128.124 E56.20243
G1 X116.505 Y128.317 E56.2099
G1 X116.259 Y128.629 E56.22311
G1 X115.962 Y128.9 E56.23648
G1 X115.641 Y129.11 E56.24924
G1 X115.287 Y129.265 E56.2621
G1 X114.885 Y129.367 E56.27589
G0 F7500 X114.95 Y129.763
;TYPE:WALL-OUTER
G1 F1245 X114.492 Y129.8 E56.29117
G1 X105.501 Y129.8 E56.59022
G1 X105.047 Y129.763 E56.60537
G1 X104.796 Y129.709 E56.6139
G1 X104.599 Y129.651 E56.62073
G1 X104.363 Y129.557 E56.62918
G1 X103.961 Y129.338 E56.64441
G1 X103.595 Y129.051 E56.65988
G1 X103.284 Y128.71 E56.67523
G1 X103.038 Y128.335 E56.69015
G1 X102.854 Y127.912 E56.70549
G1 X102.737 Y127.45 E56.72134
G1 X102.7 Y127 E56.73636
G1 X102.7 Y93.001 E57.86717
G1 X102.737 Y92.547 E57.88232
G1 X102.791 Y92.296 E57.89086
G1 X102.849 Y92.099 E57.89769
G1 X102.944 Y91.859 E57.90627
G1 X103.162 Y91.461 E57.92137
G1 X103.449 Y91.095 E57.93684
G1 X103.798 Y90.777 E57.95254
G1 X104.168 Y90.537 E57.96721
G1 X104.587 Y90.354 E57.98242
G1 X105.05 Y90.237 E57.9983
G1 X105.495 Y90.201 E58.01315
G1 X114.499 Y90.2 E58.31262
G1 X114.953 Y90.237 E58.32777
G1 X115.204 Y90.291 E58.33631
G1 X115.401 Y90.349 E58.34314
G1 X115.637 Y90.443 E58.35159
G1 X115.824 Y90.533 E58.35849
G1 X116.042 Y90.663 E58.36694
G1 X116.405 Y90.949 E58.38231
G1 X116.723 Y91.298 E58.39801
G1 X116.963 Y91.668 E58.41268
G1 X117.145 Y92.084 E58.42778
G1 X117.263 Y92.55 E58.44377
G1 X117.3 Y93 E58.45879
G1 X117.3 Y126.999 E59.5896
G1 X117.263 Y127.453 E59.60475
G1 X117.209 Y127.703 E59.61326
G1 X117.152 Y127.9 E59.62008
G1 X117.057 Y128.137 E59.62857
G1 X116.967 Y128.324 E59.63547
G1 X116.837 Y128.542 E59.64391
G1 X116.551 Y128.905 E59.65928
G1 X116.21 Y129.216 E59.67463
G1 X115.836 Y129.461 E59.68951
G1 X115.413 Y129.646 E59.70486
