;FLAVOR:Marlin
;TIME:5850
;Filament used: 3.74806m
;Layer height: 0.2
;MINX:84.466
;MINY:84.458
;MINZ:0.2
;MAXX:135.534
;MAXY:135.542
;MAXZ:16.6
;Generated with Cura_SteamEngine 4.12.0
M140 S55
M105
M190 S55
M104 S195
M105
M109 S195
M82 ;absolute extrusion mode
; Ender 3 Custom Start G-code
G92 E0 ; Reset Extruder
G28 ; Home all axes
G1 Z2.0 F3000 ; Move Z Axis up little to prevent scratching of Heat Bed
G1 X0.1 Y20 Z0.3 F5000.0 ; Move to start position
G1 X0.1 Y200.0 Z0.3 F1500.0 E15 ; Draw the first line
G1 X0.4 Y200.0 Z0.3 F5000.0 ; Move to side a little
G1 X0.4 Y20 Z0.3 F1500.0 E30 ; Draw the second line
G92 E0 ; Reset Extruder
G1 Z2.0 F3000 ; Move Z Axis up little to prevent scratching of Heat Bed
G1 X5 Y20 Z0.3 F5000.0 ; Move over to prevent blob squish
G92 E0
G92 E0
G1 F1500 E-5
;LAYER_COUNT:83
;LAYER:0
M107
;MESH:3D4U_Coffee_Clip_Cap.stl
G0 F6000 X109.998 Y132.121 Z0.2
;TYPE:WALL-INNER
G1 F1500 E0
G1 F1200 X108.723 Y132.083 E0.04243
G1 X107.442 Y131.974 E0.08519
G1 X106.177 Y131.79 E0.1277
G1 X104.923 Y131.531 E0.17029
G1 X103.677 Y131.199 E0.21318
G1 X102.467 Y130.8 E0.25556
G1 X101.274 Y130.328 E0.29823
G1 X100.114 Y129.79 E0.34076
G1 X99.919 Y129.688 E0.34808
G1 X98.983 Y129.184 E0.38343
G1 X97.88 Y128.506 E0.4265
G1 X97.713 Y128.392 E0.43322
G1 X96.846 Y127.786 E0.4684
G1 X96.667 Y127.649 E0.4759
G1 X95.834 Y126.991 E0.51121
G1 X95.671 Y126.851 E0.51835
G1 X94.884 Y126.151 E0.55339
G1 X94.715 Y125.988 E0.5612
G1 X93.963 Y125.237 E0.59654
G1 X93.819 Y125.083 E0.60356
G1 X93.11 Y124.288 E0.63899
G1 X92.977 Y124.126 E0.64596
G1 X92.31 Y123.284 E0.68168
G1 X92.189 Y123.117 E0.68854
G1 X91.573 Y122.239 E0.72422
G1 X91.455 Y122.057 E0.73143
G1 X90.889 Y121.143 E0.76719
G1 X90.793 Y120.975 E0.77362
G1 X90.276 Y120.017 E0.80983
G1 X90.183 Y119.831 E0.81675
G1 X89.733 Y118.866 E0.85216
G1 X89.651 Y118.674 E0.8591
G1 X89.252 Y117.672 E0.89498
G1 X89.186 Y117.49 E0.90142
G1 X88.846 Y116.467 E0.93727
G1 X88.78 Y116.249 E0.94485
G1 X88.509 Y115.241 E0.97956
G1 X88.459 Y115.027 E0.98687
G1 X88.239 Y113.971 E1.02275
G1 X88.2 Y113.756 E1.03002
G1 X88.047 Y112.714 E1.06505
G1 X88.018 Y112.486 E1.07269
G1 X87.926 Y111.439 E1.10765
G1 X87.914 Y111.239 E1.11431
G1 X87.881 Y110.155 E1.15038
G1 X87.879 Y109.966 E1.15667
G1 X87.909 Y108.896 E1.19227
G1 X87.919 Y108.68 E1.19946
G1 X88.011 Y107.602 E1.23545
G1 X88.03 Y107.412 E1.2418
G1 X88.184 Y106.347 E1.27759
G1 X88.219 Y106.131 E1.28487
G1 X88.433 Y105.09 E1.32021
G1 X88.484 Y104.859 E1.32808
G1 X88.754 Y103.848 E1.36289
G1 X88.81 Y103.647 E1.36983
G1 X89.145 Y102.629 E1.40547
G1 X89.209 Y102.443 E1.41201
G1 X89.704 Y101.2 E1.45651
G1 X90.22 Y100.093 E1.49714
G1 X90.84 Y98.944 E1.54056
G1 X91.516 Y97.845 E1.58348
G1 X92.248 Y96.798 E1.62597
G1 X93.037 Y95.8 E1.66828
G1 X93.895 Y94.834 E1.71125
G1 X94.803 Y93.924 E1.75401
G1 X95.754 Y93.074 E1.79643
G1 X96.758 Y92.278 E1.83905
G1 X97.79 Y91.552 E1.88101
G1 X97.988 Y91.427 E1.8888
G1 X98.862 Y90.886 E1.92299
G1 X100.038 Y90.248 E1.96749
G1 X100.215 Y90.162 E1.97404
G1 X101.151 Y89.724 E2.00841
G1 X101.369 Y89.635 E2.01624
G1 X102.363 Y89.239 E2.05183
G1 X102.567 Y89.167 E2.05902
G1 X103.575 Y88.831 E2.09436
G1 X103.784 Y88.772 E2.10158
G1 X104.807 Y88.496 E2.13683
G1 X105.016 Y88.45 E2.14394
G1 X106.086 Y88.228 E2.18029
G1 X106.27 Y88.197 E2.1865
G1 X107.33 Y88.041 E2.22213
G1 X107.557 Y88.015 E2.22973
G1 X108.604 Y87.923 E2.26469
G1 X108.819 Y87.912 E2.27185
G1 X109.9 Y87.88 E2.30782
G1 X110.095 Y87.881 E2.3143
G1 X111.179 Y87.911 E2.35037
G1 X111.396 Y87.923 E2.3576
G1 X112.429 Y88.013 E2.39209
G1 X112.653 Y88.04 E2.39959
G1 X113.718 Y88.195 E2.43539
G1 X113.917 Y88.23 E2.44211
G1 X114.967 Y88.446 E2.47776
G1 X115.199 Y88.499 E2.48568
G1 X116.198 Y88.767 E2.52008
G1 X116.412 Y88.83 E2.5275
G1 X117.438 Y89.168 E2.56343
G1 X117.615 Y89.232 E2.56969
G1 X118.614 Y89.628 E2.60543
G1 X118.81 Y89.71 E2.6125
G1 X119.783 Y90.163 E2.64819
G1 X119.984 Y90.261 E2.65563
G1 X120.92 Y90.766 E2.69101
G1 X121.095 Y90.864 E2.69768
G1 X122.002 Y91.422 E2.7331
G1 X122.203 Y91.551 E2.74104
G1 X123.063 Y92.152 E2.77594
G1 X123.224 Y92.267 E2.78252
G1 X124.078 Y92.942 E2.81872
G1 X124.242 Y93.074 E2.82572
G1 X125.033 Y93.78 E2.86099
G1 X125.215 Y93.946 E2.86918
G1 X126.102 Y94.834 E2.91093
G1 X126.809 Y95.628 E2.94629
G1 X126.965 Y95.806 E2.95416
G1 X127.749 Y96.799 E2.99624
G1 X128.5 Y97.873 E3.03983
G1 X129.143 Y98.915 E3.08055
G1 X129.774 Y100.082 E3.12468
G1 X130.295 Y101.199 E3.16567
G1 X130.779 Y102.415 E3.2092
G1 X131.192 Y103.657 E3.25273
G1 X131.51 Y104.839 E3.29345
G1 X131.779 Y106.129 E3.33727
G1 X131.968 Y107.405 E3.38018
G1 X131.988 Y107.606 E3.38689
G1 X132.079 Y108.642 E3.42149
G1 X132.089 Y108.877 E3.42931
G1 X132.121 Y109.959 E3.46531
G1 X132.088 Y111.211 E3.50697
G1 X132.071 Y111.446 E3.5148
G1 X131.981 Y112.478 E3.54926
G1 X131.951 Y112.709 E3.55701
G1 X131.798 Y113.765 E3.5925
G1 X131.758 Y113.975 E3.59961
G1 X131.542 Y115.028 E3.63536
G1 X131.494 Y115.224 E3.64207
G1 X131.221 Y116.242 E3.67713
G1 X131.153 Y116.461 E3.68475
G1 X130.817 Y117.48 E3.72044
G1 X130.744 Y117.673 E3.7273
G1 X130.355 Y118.656 E3.76246
G1 X130.265 Y118.863 E3.76997
G1 X129.809 Y119.842 E3.80589
G1 X129.721 Y120.017 E3.81241
G1 X129.219 Y120.949 E3.84762
G1 X129.105 Y121.145 E3.85516
G1 X128.552 Y122.043 E3.89023
G1 X128.419 Y122.244 E3.89825
G1 X127.807 Y123.122 E3.93385
G1 X127.694 Y123.274 E3.94015
G1 X127.017 Y124.131 E3.97647
G1 X126.897 Y124.275 E3.98271
G1 X126.189 Y125.07 E4.01811
G1 X126.024 Y125.246 E4.02614
G1 X125.281 Y125.99 E4.06111
G1 X125.113 Y126.151 E4.06885
G1 X124.337 Y126.843 E4.10343
G1 X124.172 Y126.984 E4.11065
G1 X123.327 Y127.652 E4.14648
G1 X123.161 Y127.778 E4.15341
G1 X122.281 Y128.394 E4.18913
G1 X122.113 Y128.508 E4.19589
G1 X121.194 Y129.078 E4.23185
G1 X121.029 Y129.174 E4.2382
G1 X120.077 Y129.69 E4.27422
G1 X119.889 Y129.787 E4.28126
G1 X118.925 Y130.238 E4.31665
G1 X118.743 Y130.319 E4.32328
G1 X117.741 Y130.718 E4.35915
G1 X117.533 Y130.797 E4.36655
G1 X116.519 Y131.134 E4.40209
G1 X116.295 Y131.206 E4.40992
G1 X115.295 Y131.474 E4.44435
G1 X115.083 Y131.528 E4.45163
G1 X113.836 Y131.786 E4.49398
G1 X112.559 Y131.973 E4.53691
G1 X111.275 Y132.082 E4.57977
G1 X109.998 Y132.121 E4.62226
G0 F6000 X109.998 Y132.521
G1 F1200 X108.695 Y132.483 E4.66562
G1 X107.4 Y132.372 E4.70885
G1 X106.107 Y132.184 E4.7523
G1 X104.828 Y131.92 E4.79574
G1 X103.57 Y131.585 E4.83904
G1 X102.333 Y131.177 E4.88236
G1 X101.116 Y130.696 E4.92589
G1 X99.939 Y130.15 E4.96904
G1 X99.733 Y130.042 E4.97678
G1 X98.776 Y129.527 E5.01292
G1 X97.67 Y128.847 E5.05611
G1 X97.487 Y128.722 E5.06348
G1 X96.609 Y128.109 E5.09909
G1 X96.423 Y127.966 E5.1069
G1 X95.571 Y127.294 E5.14299
G1 X95.409 Y127.154 E5.15011
G1 X94.61 Y126.443 E5.18568
G1 X94.437 Y126.276 E5.19368
G1 X93.68 Y125.52 E5.22926
G1 X93.52 Y125.349 E5.23705
G1 X92.811 Y124.554 E5.27248
G1 X92.663 Y124.374 E5.28023
G1 X91.989 Y123.523 E5.31634
G1 X91.865 Y123.352 E5.32336
G1 X91.237 Y122.457 E5.35973
G1 X91.119 Y122.275 E5.36694
G1 X90.549 Y121.354 E5.40297
G1 X90.441 Y121.165 E5.41021
G1 X89.924 Y120.207 E5.44641
G1 X89.822 Y120.004 E5.45397
G1 X89.37 Y119.035 E5.48953
G1 X89.283 Y118.831 E5.49691
G1 X88.88 Y117.82 E5.53311
G1 X88.806 Y117.616 E5.54033
G1 X88.464 Y116.586 E5.57642
G1 X88.397 Y116.366 E5.58407
G1 X88.119 Y115.332 E5.61968
G1 X88.069 Y115.118 E5.62699
G1 X87.847 Y114.053 E5.66318
G1 X87.806 Y113.827 E5.67082
G1 X87.651 Y112.772 E5.70628
G1 X87.621 Y112.536 E5.7142
G1 X87.528 Y111.474 E5.74965
G1 X87.514 Y111.251 E5.75708
G1 X87.481 Y110.167 E5.79316
G1 X87.479 Y109.955 E5.80021
G1 X87.509 Y108.877 E5.83608
G1 X87.52 Y108.646 E5.84377
G1 X87.613 Y107.568 E5.87975
G1 X87.634 Y107.355 E5.88687
G1 X87.789 Y106.282 E5.92293
G1 X87.827 Y106.05 E5.93075
G1 X88.042 Y105.004 E5.96627
G1 X88.093 Y104.773 E5.97414
G1 X88.369 Y103.741 E6.00967
G1 X88.43 Y103.522 E6.01723
G1 X88.767 Y102.499 E6.05305
G1 X88.837 Y102.295 E6.06023
G1 X89.332 Y101.052 E6.10473
G1 X89.868 Y99.903 E6.1469
G1 X90.499 Y98.734 E6.19108
G1 X91.175 Y97.635 E6.23399
G1 X91.928 Y96.558 E6.2777
G1 X92.731 Y95.542 E6.32077
G1 X93.604 Y94.559 E6.3645
G1 X94.526 Y93.635 E6.40792
G1 X95.489 Y92.774 E6.45088
G1 X96.51 Y91.964 E6.49423
G1 X97.576 Y91.214 E6.53758
G1 X97.774 Y91.089 E6.54537
G1 X98.671 Y90.534 E6.58045
G1 X99.847 Y89.896 E6.62495
G1 X100.041 Y89.802 E6.63212
G1 X100.999 Y89.354 E6.66729
G1 X101.221 Y89.263 E6.67527
G1 X102.223 Y88.864 E6.71115
G1 X102.435 Y88.79 E6.71861
G1 X103.467 Y88.446 E6.7548
G1 X103.68 Y88.386 E6.76216
G1 X104.721 Y88.105 E6.79802
G1 X104.935 Y88.058 E6.80531
G1 X106.005 Y87.836 E6.84165
G1 X106.212 Y87.801 E6.84864
G1 X107.272 Y87.645 E6.88427
G1 X107.517 Y87.617 E6.89247
G1 X108.577 Y87.524 E6.92786
G1 X108.807 Y87.512 E6.93552
G1 X109.89 Y87.48 E6.97156
G1 X110.106 Y87.481 E6.97874
G1 X111.19 Y87.511 E7.01481
G1 X111.422 Y87.524 E7.02254
G1 X112.476 Y87.616 E7.05773
G1 X112.711 Y87.644 E7.0656
G1 X113.776 Y87.799 E7.1014
G1 X113.998 Y87.838 E7.10889
G1 X115.048 Y88.054 E7.14455
G1 X115.288 Y88.109 E7.15274
G1 X116.31 Y88.383 E7.18793
G1 X116.532 Y88.448 E7.19562
G1 X117.563 Y88.788 E7.23173
G1 X117.762 Y88.86 E7.23877
G1 X118.769 Y89.259 E7.2748
G1 X118.979 Y89.347 E7.28237
G1 X119.958 Y89.803 E7.31829
G1 X120.159 Y89.901 E7.32573
G1 X121.11 Y90.414 E7.36167
G1 X121.305 Y90.523 E7.3691
G1 X122.218 Y91.085 E7.40476
G1 X122.419 Y91.214 E7.4127
G1 X123.296 Y91.827 E7.44829
G1 X123.472 Y91.953 E7.45549
G1 X124.329 Y92.63 E7.49181
G1 X124.493 Y92.762 E7.49881
G1 X125.303 Y93.484 E7.5349
G1 X125.485 Y93.65 E7.5431
G1 X126.393 Y94.559 E7.58583
G1 X127.11 Y95.364 E7.62168
G1 X127.266 Y95.542 E7.62956
G1 X128.069 Y96.559 E7.67265
G1 X128.828 Y97.644 E7.7167
G1 X129.495 Y98.725 E7.75894
G1 X130.126 Y99.892 E7.80307
G1 X130.667 Y101.051 E7.84561
G1 X131.155 Y102.277 E7.8895
G1 X131.572 Y103.531 E7.93345
G1 X131.902 Y104.757 E7.97568
G1 X132.173 Y106.057 E8.01985
G1 X132.364 Y107.346 E8.06319
G1 X132.386 Y107.566 E8.07054
G1 X132.479 Y108.625 E8.1059
G1 X132.489 Y108.865 E8.11389
G1 X132.521 Y109.947 E8.14989
G1 X132.517 Y110.167 E8.15721
G1 X132.487 Y111.24 E8.19291
G1 X132.47 Y111.475 E8.20075
G1 X132.378 Y112.53 E8.23597
G1 X132.347 Y112.766 E8.24389
G1 X132.191 Y113.84 E8.27999
G1 X132.15 Y114.055 E8.28726
G1 X131.934 Y115.108 E8.32302
G1 X131.88 Y115.328 E8.33055
G1 X131.603 Y116.361 E8.36612
G1 X131.533 Y116.586 E8.37396
G1 X131.193 Y117.616 E8.41004
G1 X131.116 Y117.82 E8.41729
G1 X130.722 Y118.816 E8.45291
G1 X130.628 Y119.032 E8.46075
G1 X130.172 Y120.011 E8.49667
G1 X130.073 Y120.207 E8.50397
G1 X129.565 Y121.151 E8.53963
G1 X129.446 Y121.355 E8.54748
G1 X128.886 Y122.264 E8.58299
G1 X128.753 Y122.465 E8.59101
G1 X128.134 Y123.352 E8.62698
G1 X128.008 Y123.522 E8.63402
G1 X127.331 Y124.379 E8.67035
G1 X127.196 Y124.541 E8.67736
G1 X126.481 Y125.344 E8.71312
G1 X126.316 Y125.52 E8.72115
G1 X125.558 Y126.279 E8.75682
G1 X125.387 Y126.443 E8.7647
G1 X124.597 Y127.147 E8.7999
G1 X124.42 Y127.298 E8.80764
G1 X123.57 Y127.97 E8.84368
G1 X123.401 Y128.099 E8.85075
G1 X122.51 Y128.722 E8.88691
G1 X122.324 Y128.848 E8.89438
G1 X121.405 Y129.418 E8.93035
G1 X121.22 Y129.526 E8.93747
G1 X120.264 Y130.044 E8.97364
G1 X120.072 Y130.143 E8.98082
G1 X119.087 Y130.604 E9.01699
G1 X118.891 Y130.691 E9.02413
G1 X117.884 Y131.092 E9.06018
G1 X117.669 Y131.174 E9.06783
G1 X116.645 Y131.514 E9.10372
G1 X116.417 Y131.587 E9.11168
G1 X115.394 Y131.861 E9.1469
G1 X115.164 Y131.92 E9.1548
G1 X113.906 Y132.18 E9.19753
G1 X112.601 Y132.371 E9.24139
G1 X111.303 Y132.482 E9.28472
G1 X109.998 Y132.521 E9.32815
G0 F6000 X109.999 Y132.921
;TYPE:WALL-OUTER
G1 F1200 X108.667 Y132.883 E9.37247
G1 X107.358 Y132.77 E9.41617
G1 X106.037 Y132.578 E9.46057
G1 X104.733 Y132.309 E9.50485
G1 X103.463 Y131.971 E9.54856
G1 X102.197 Y131.554 E9.59289
G1 X100.958 Y131.064 E9.63721
G1 X99.764 Y130.51 E9.68099
G1 X99.547 Y130.396 E9.68914
G1 X98.586 Y129.879 E9.72544
G1 X98.384 Y129.757 E9.73328
G1 X97.46 Y129.188 E9.76938
G1 X97.261 Y129.052 E9.77739
G1 X96.374 Y128.433 E9.81337
G1 X96.179 Y128.283 E9.82155
G1 X95.323 Y127.608 E9.85781
G1 X95.143 Y127.453 E9.86571
G1 X94.336 Y126.735 E9.90164
G1 X94.159 Y126.564 E9.90982
G1 X93.388 Y125.794 E9.94606
G1 X93.227 Y125.62 E9.95395
G1 X92.502 Y124.808 E9.99015
G1 X92.354 Y124.628 E9.9979
G1 X91.675 Y123.771 E10.03427
G1 X91.537 Y123.582 E10.04205
G1 X90.91 Y122.687 E10.0784
G1 X90.78 Y122.487 E10.08633
G1 X90.209 Y121.565 E10.1224
G1 X90.089 Y121.355 E10.13045
G1 X89.572 Y120.397 E10.16666
G1 X89.465 Y120.183 E10.17461
G1 X89.008 Y119.204 E10.21055
G1 X88.911 Y118.979 E10.2187
G1 X88.509 Y117.968 E10.25488
G1 X88.426 Y117.742 E10.26289
G1 X88.084 Y116.712 E10.29899
G1 X88.014 Y116.482 E10.30699
G1 X87.733 Y115.436 E10.34301
G1 X87.677 Y115.2 E10.35108
G1 X87.455 Y114.135 E10.38726
G1 X87.412 Y113.898 E10.39527
G1 X87.255 Y112.83 E10.43117
G1 X87.224 Y112.586 E10.43936
G1 X87.13 Y111.509 E10.47531
G1 X87.114 Y111.263 E10.48351
G1 X87.081 Y110.179 E10.51958
G1 X87.079 Y109.944 E10.5274
G1 X87.109 Y108.858 E10.56353
G1 X87.121 Y108.612 E10.57172
G1 X87.214 Y107.534 E10.60771
G1 X87.238 Y107.298 E10.6156
G1 X87.394 Y106.217 E10.65193
G1 X87.432 Y105.985 E10.65975
G1 X87.651 Y104.918 E10.69598
G1 X87.702 Y104.687 E10.70384
G1 X87.984 Y103.634 E10.7401
G1 X88.05 Y103.397 E10.74828
G1 X88.389 Y102.369 E10.78429
G1 X88.465 Y102.147 E10.79209
G1 X88.96 Y100.904 E10.83659
G1 X89.516 Y99.713 E10.88031
G1 X90.152 Y98.535 E10.92483
G1 X90.841 Y97.414 E10.9686
G1 X91.608 Y96.318 E11.01309
G1 X92.423 Y95.286 E11.05683
G1 X93.312 Y94.285 E11.10136
G1 X94.249 Y93.346 E11.14548
G1 X95.229 Y92.47 E11.1892
G1 X96.268 Y91.645 E11.23332
G1 X97.362 Y90.876 E11.2778
G1 X97.56 Y90.751 E11.28559
G1 X98.48 Y90.182 E11.32157
G1 X99.656 Y89.544 E11.36606
G1 X99.867 Y89.442 E11.37386
G1 X100.847 Y88.984 E11.40984
G1 X101.073 Y88.891 E11.41797
G1 X102.08 Y88.49 E11.45402
G1 X102.309 Y88.41 E11.46209
G1 X103.345 Y88.065 E11.4984
G1 X103.571 Y88.001 E11.50622
G1 X104.621 Y87.718 E11.54239
G1 X104.854 Y87.666 E11.55033
G1 X105.924 Y87.444 E11.58667
G1 X106.154 Y87.405 E11.59443
G1 X107.228 Y87.247 E11.63054
G1 X107.473 Y87.22 E11.63873
G1 X108.549 Y87.125 E11.67466
G1 X108.795 Y87.112 E11.68286
G1 X109.88 Y87.08 E11.71896
G1 X110.117 Y87.081 E11.72684
G1 X111.201 Y87.111 E11.76291
G1 X111.447 Y87.125 E11.7711
G1 X112.523 Y87.219 E11.80703
G1 X112.768 Y87.248 E11.81523
G1 X113.843 Y87.404 E11.85136
G1 X114.079 Y87.446 E11.85934
G1 X115.139 Y87.664 E11.89533
G1 X115.379 Y87.72 E11.90353
G1 X116.422 Y87.999 E11.93944
G1 X116.652 Y88.066 E11.9474
G1 X117.688 Y88.408 E11.98369
G1 X117.909 Y88.488 E11.99151
G1 X118.924 Y88.89 E12.02782
G1 X119.148 Y88.984 E12.0359
G1 X120.127 Y89.44 E12.07182
G1 X120.349 Y89.549 E12.08004
G1 X121.3 Y90.062 E12.11598
G1 X121.515 Y90.182 E12.12417
G1 X122.434 Y90.748 E12.16007
G1 X122.635 Y90.877 E12.16801
G1 X123.529 Y91.502 E12.20429
G1 X123.72 Y91.639 E12.21211
G1 X124.577 Y92.316 E12.24844
G1 X124.759 Y92.463 E12.25622
G1 X125.573 Y93.188 E12.29247
G1 X125.755 Y93.354 E12.30067
G1 X126.519 Y94.117 E12.33658
G1 X126.692 Y94.293 E12.34479
G1 X127.411 Y95.1 E12.38074
G1 X127.567 Y95.278 E12.38861
G1 X128.389 Y96.319 E12.43273
G1 X129.156 Y97.415 E12.47722
G1 X129.847 Y98.535 E12.52099
G1 X130.478 Y99.702 E12.56511
G1 X131.039 Y100.903 E12.6092
G1 X131.532 Y102.141 E12.65352
G1 X131.952 Y103.405 E12.69782
G1 X132.294 Y104.675 E12.74157
G1 X132.567 Y105.985 E12.78608
G1 X132.76 Y107.287 E12.82985
G1 X132.784 Y107.531 E12.83801
G1 X132.879 Y108.609 E12.874
G1 X132.889 Y108.853 E12.88212
G1 X132.921 Y109.935 E12.91813
G1 X132.917 Y110.178 E12.92621
G1 X132.886 Y111.269 E12.96251
G1 X132.869 Y111.504 E12.97035
G1 X132.775 Y112.583 E13.00637
G1 X132.743 Y112.824 E13.01446
G1 X132.586 Y113.904 E13.05076
G1 X132.542 Y114.135 E13.05858
G1 X132.324 Y115.197 E13.09464
G1 X132.266 Y115.432 E13.10269
G1 X131.985 Y116.48 E13.13878
G1 X131.913 Y116.711 E13.14682
G1 X131.573 Y117.742 E13.18293
G1 X131.488 Y117.967 E13.19093
G1 X131.089 Y118.976 E13.22702
G1 X130.991 Y119.201 E13.23518
