;FLAVOR:Marlin
;TIME:26814
;Filament used: 13.7274m
;Layer height: 0.16
;MINX:12.916
;MINY:17.185
;MINZ:0.2
;MAXX:206.78
;MAXY:202.737
;MAXZ:2.76
;Generated with Cura_SteamEngine 4.12.0
M140 S55
M105
M190 S55
M104 S195
M105
M109 S195
M82 ;absolute extrusion mode
; Ender 3 Custom Start G-code
G92 E0 ; Reset Extruder
G28 ; Home all axes
G1 Z2.0 F3000 ; Move Z Axis up little to prevent scratching of Heat Bed
G1 X0.1 Y20 Z0.3 F5000.0 ; Move to start position
G1 X0.1 Y200.0 Z0.3 F1500.0 E15 ; Draw the first line
G1 X0.4 Y200.0 Z0.3 F5000.0 ; Move to side a little
G1 X0.4 Y20 Z0.3 F1500.0 E30 ; Draw the second line
G92 E0 ; Reset Extruder
G1 Z2.0 F3000 ; Move Z Axis up little to prevent scratching of Heat Bed
G1 X5 Y20 Z0.3 F5000.0 ; Move over to prevent blob squish
G92 E0
G92 E0
G1 F1500 E-5
;LAYER_COUNT:17
;LAYER:0
M107
;MESH:COVERS_B.STL
G0 F6000 X147.581 Y201.084 Z0.2
;TYPE:WALL-INNER
G1 F1500 E0
G1 F1200 X14.581 Y201.083 E4.4236
G1 X14.581 Y194.916 E4.62871
G1 X147.581 Y194.917 E9.05231
G1 X147.581 Y201.084 E9.25743
G0 F6000 X147.981 Y201.484
G1 F1200 X14.181 Y201.483 E13.70763
G1 X14.181 Y194.516 E13.93936
G1 X147.981 Y194.517 E18.38956
G1 X147.981 Y201.484 E18.62129
G0 F6000 X148.381 Y201.884
;TYPE:WALL-OUTER
G1 F1200 X13.781 Y201.883 E23.0981
G1 X13.781 Y194.116 E23.35643
G1 X148.381 Y194.117 E27.83325
G1 X148.381 Y201.884 E28.09158
G0 F6000 X148.111 Y201.614
G0 X147.19 Y200.973
G0 X147.191 Y200.694
;TYPE:SKIN
G1 F1200 X14.971 Y200.693 E32.48923
G1 X14.971 Y195.306 E32.6684
G1 X147.191 Y195.307 E37.06606
G1 X147.191 Y200.694 E37.24523
G0 F6000 X147.19 Y200.973
G0 X147.471 Y195.679
G0 X147.03 Y195.679
G1 F1200 X146.817 Y195.466 E37.25525
G0 F6000 X146.251 Y195.466
G1 F1200 X147.03 Y196.245 E37.29189
G0 F6000 X147.03 Y196.811
G1 F1200 X145.685 Y195.466 E37.35516
G0 F6000 X145.12 Y195.466
G1 F1200 X147.03 Y197.376 E37.445
G0 F6000 X147.03 Y197.942
G1 F1200 X144.554 Y195.466 E37.56146
G0 F6000 X143.988 Y195.466
G1 F1200 X147.03 Y198.508 E37.70455
G0 F6000 X147.03 Y199.073
G1 F1200 X143.423 Y195.466 E37.87421
G0 F6000 X142.857 Y195.466
G1 F1200 X147.03 Y199.639 E38.07049
G0 F6000 X147.03 Y200.205
G1 F1200 X142.291 Y195.466 E38.2934
G0 F6000 X141.726 Y195.466
G1 F1200 X146.792 Y200.532 E38.53169
G0 F6000 X146.226 Y200.532
G1 F1200 X141.16 Y195.466 E38.76998
G0 F6000 X140.594 Y195.466
G1 F1200 X145.661 Y200.532 E39.00829
G0 F6000 X145.095 Y200.532
G1 F1200 X140.029 Y195.466 E39.24658
G0 F6000 X139.463 Y195.466
G1 F1200 X144.529 Y200.532 E39.48487
G0 F6000 X143.964 Y200.532
G1 F1200 X138.897 Y195.466 E39.72318
G0 F6000 X138.332 Y195.466
G1 F1200 X143.398 Y200.532 E39.96147
G0 F6000 X142.832 Y200.532
G1 F1200 X137.766 Y195.466 E40.19976
G0 F6000 X137.2 Y195.466
G1 F1200 X142.267 Y200.532 E40.43807
G0 F6000 X141.701 Y200.532
G1 F1200 X136.634 Y195.466 E40.67639
G0 F6000 X136.069 Y195.466
G1 F1200 X141.135 Y200.532 E40.91468
G0 F6000 X140.569 Y200.532
G1 F1200 X135.503 Y195.466 E41.15297
G0 F6000 X134.937 Y195.466
G1 F1200 X140.004 Y200.532 E41.39128
G0 F6000 X139.438 Y200.532
G1 F1200 X134.372 Y195.466 E41.62957
G0 F6000 X133.806 Y195.466
G1 F1200 X138.872 Y200.532 E41.86786
G0 F6000 X138.307 Y200.532
G1 F1200 X133.24 Y195.466 E42.10617
G0 F6000 X132.675 Y195.466
G1 F1200 X137.741 Y200.532 E42.34446
G0 F6000 X137.175 Y200.532
G1 F1200 X132.109 Y195.466 E42.58275
G0 F6000 X131.543 Y195.466
G1 F1200 X136.61 Y200.532 E42.82106
G0 F6000 X136.044 Y200.532
G1 F1200 X130.978 Y195.466 E43.05935
G0 F6000 X130.412 Y195.466
G1 F1200 X135.478 Y200.532 E43.29764
G0 F6000 X134.913 Y200.532
G1 F1200 X129.846 Y195.466 E43.53595
G0 F6000 X129.281 Y195.466
G1 F1200 X134.347 Y200.532 E43.77424
G0 F6000 X133.781 Y200.532
G1 F1200 X128.715 Y195.466 E44.01253
G0 F6000 X128.149 Y195.466
G1 F1200 X133.216 Y200.532 E44.25084
G0 F6000 X132.65 Y200.532
G1 F1200 X127.583 Y195.466 E44.48915
G0 F6000 X127.018 Y195.466
G1 F1200 X132.084 Y200.532 E44.72744
G0 F6000 X131.519 Y200.532
G1 F1200 X126.452 Y195.466 E44.96576
G0 F6000 X125.886 Y195.466
G1 F1200 X130.953 Y200.532 E45.20407
G0 F6000 X130.387 Y200.532
G1 F1200 X125.321 Y195.466 E45.44236
G0 F6000 X124.755 Y195.466
G1 F1200 X129.821 Y200.532 E45.68065
G0 F6000 X129.256 Y200.532
G1 F1200 X124.189 Y195.466 E45.91896
G0 F6000 X123.624 Y195.466
G1 F1200 X128.69 Y200.532 E46.15725
G0 F6000 X128.124 Y200.532
G1 F1200 X123.058 Y195.466 E46.39554
G0 F6000 X122.492 Y195.466
G1 F1200 X127.559 Y200.532 E46.63385
G0 F6000 X126.993 Y200.532
G1 F1200 X121.927 Y195.466 E46.87214
G0 F6000 X121.361 Y195.466
G1 F1200 X126.427 Y200.532 E47.11043
G0 F6000 X125.862 Y200.532
G1 F1200 X120.795 Y195.466 E47.34874
G0 F6000 X120.23 Y195.466
G1 F1200 X125.296 Y200.532 E47.58703
G0 F6000 X124.73 Y200.532
G1 F1200 X119.664 Y195.466 E47.82532
G0 F6000 X119.098 Y195.466
G1 F1200 X124.165 Y200.532 E48.06363
G0 F6000 X123.599 Y200.532
G1 F1200 X118.533 Y195.466 E48.30192
G0 F6000 X117.967 Y195.466
G1 F1200 X123.033 Y200.532 E48.54021
G0 F6000 X122.468 Y200.532
G1 F1200 X117.401 Y195.466 E48.77852
G0 F6000 X116.835 Y195.466
G1 F1200 X121.902 Y200.532 E49.01684
G0 F6000 X121.336 Y200.532
G1 F1200 X116.27 Y195.466 E49.25512
G0 F6000 X115.704 Y195.466
G1 F1200 X120.771 Y200.532 E49.49344
G0 F6000 X120.205 Y200.532
G1 F1200 X115.138 Y195.466 E49.73175
G0 F6000 X114.573 Y195.466
G1 F1200 X119.639 Y200.532 E49.97004
G0 F6000 X119.073 Y200.532
G1 F1200 X114.007 Y195.466 E50.20833
G0 F6000 X113.441 Y195.466
G1 F1200 X118.508 Y200.532 E50.44664
G0 F6000 X117.942 Y200.532
G1 F1200 X112.876 Y195.466 E50.68493
G0 F6000 X112.31 Y195.466
G1 F1200 X117.376 Y200.532 E50.92322
G0 F6000 X116.811 Y200.532
G1 F1200 X111.744 Y195.466 E51.16153
G0 F6000 X111.179 Y195.466
G1 F1200 X116.245 Y200.532 E51.39982
G0 F6000 X115.679 Y200.532
G1 F1200 X110.613 Y195.466 E51.63811
G0 F6000 X110.047 Y195.466
G1 F1200 X115.114 Y200.532 E51.87642
G0 F6000 X114.548 Y200.532
G1 F1200 X109.482 Y195.466 E52.11471
G0 F6000 X108.916 Y195.466
G1 F1200 X113.982 Y200.532 E52.353
G0 F6000 X113.417 Y200.532
G1 F1200 X108.35 Y195.466 E52.59131
G0 F6000 X107.784 Y195.466
G1 F1200 X112.851 Y200.532 E52.82963
G0 F6000 X112.285 Y200.532
G1 F1200 X107.219 Y195.466 E53.06792
G0 F6000 X106.653 Y195.466
G1 F1200 X111.72 Y200.532 E53.30623
G0 F6000 X111.154 Y200.532
G1 F1200 X106.087 Y195.466 E53.54454
G0 F6000 X105.522 Y195.466
G1 F1200 X110.588 Y200.532 E53.78283
G0 F6000 X110.022 Y200.532
G1 F1200 X104.956 Y195.466 E54.02112
G0 F6000 X104.39 Y195.466
G1 F1200 X109.457 Y200.532 E54.25943
G0 F6000 X108.891 Y200.532
G1 F1200 X103.825 Y195.466 E54.49772
G0 F6000 X103.259 Y195.466
G1 F1200 X108.325 Y200.532 E54.73601
G0 F6000 X107.76 Y200.532
G1 F1200 X102.693 Y195.466 E54.97432
G0 F6000 X102.128 Y195.466
G1 F1200 X107.194 Y200.532 E55.21261
G0 F6000 X106.628 Y200.532
G1 F1200 X101.562 Y195.466 E55.4509
G0 F6000 X100.996 Y195.466
G1 F1200 X106.063 Y200.532 E55.68921
G0 F6000 X105.497 Y200.532
G1 F1200 X100.431 Y195.466 E55.9275
G0 F6000 X99.865 Y195.466
G1 F1200 X104.931 Y200.532 E56.16579
G0 F6000 X104.366 Y200.532
G1 F1200 X99.299 Y195.466 E56.4041
G0 F6000 X98.734 Y195.466
G1 F1200 X103.8 Y200.532 E56.64239
G0 F6000 X103.234 Y200.532
G1 F1200 X98.168 Y195.466 E56.88068
G0 F6000 X97.602 Y195.466
G1 F1200 X102.669 Y200.532 E57.11899
G0 F6000 X102.103 Y200.532
G1 F1200 X97.036 Y195.466 E57.35731
G0 F6000 X96.471 Y195.466
G1 F1200 X101.537 Y200.532 E57.5956
G0 F6000 X100.972 Y200.532
G1 F1200 X95.905 Y195.466 E57.83391
G0 F6000 X95.339 Y195.466
G1 F1200 X100.406 Y200.532 E58.07222
G0 F6000 X99.84 Y200.532
G1 F1200 X94.774 Y195.466 E58.31051
G0 F6000 X94.208 Y195.466
G1 F1200 X99.274 Y200.532 E58.5488
G0 F6000 X98.709 Y200.532
G1 F1200 X93.642 Y195.466 E58.78711
G0 F6000 X93.077 Y195.466
G1 F1200 X98.143 Y200.532 E59.0254
G0 F6000 X97.577 Y200.532
G1 F1200 X92.511 Y195.466 E59.26369
G0 F6000 X91.945 Y195.466
G1 F1200 X97.012 Y200.532 E59.502
G0 F6000 X96.446 Y200.532
G1 F1200 X91.38 Y195.466 E59.74029
G0 F6000 X90.814 Y195.466
G1 F1200 X95.88 Y200.532 E59.97858
G0 F6000 X95.315 Y200.532
G1 F1200 X90.248 Y195.466 E60.21689
G0 F6000 X89.683 Y195.466
G1 F1200 X94.749 Y200.532 E60.45518
G0 F6000 X94.183 Y200.532
G1 F1200 X89.117 Y195.466 E60.69347
G0 F6000 X88.551 Y195.466
G1 F1200 X93.618 Y200.532 E60.93178
G0 F6000 X93.052 Y200.532
G1 F1200 X87.986 Y195.466 E61.17007
G0 F6000 X87.42 Y195.466
G1 F1200 X92.486 Y200.532 E61.40836
G0 F6000 X91.921 Y200.532
G1 F1200 X86.854 Y195.466 E61.64668
G0 F6000 X86.288 Y195.466
G1 F1200 X91.355 Y200.532 E61.88499
G0 F6000 X90.789 Y200.532
G1 F1200 X85.723 Y195.466 E62.12328
G0 F6000 X85.157 Y195.466
G1 F1200 X90.223 Y200.532 E62.36157
G0 F6000 X89.658 Y200.532
G1 F1200 X84.591 Y195.466 E62.59988
G0 F6000 X84.026 Y195.466
G1 F1200 X89.092 Y200.532 E62.83817
G0 F6000 X88.526 Y200.532
G1 F1200 X83.46 Y195.466 E63.07646
G0 F6000 X82.894 Y195.466
G1 F1200 X87.961 Y200.532 E63.31477
G0 F6000 X87.395 Y200.532
G1 F1200 X82.329 Y195.466 E63.55306
G0 F6000 X81.763 Y195.466
G1 F1200 X86.829 Y200.532 E63.79135
G0 F6000 X86.264 Y200.532
G1 F1200 X81.197 Y195.466 E64.02966
G0 F6000 X80.632 Y195.466
G1 F1200 X85.698 Y200.532 E64.26795
G0 F6000 X85.132 Y200.532
G1 F1200 X80.066 Y195.466 E64.50624
G0 F6000 X79.5 Y195.466
G1 F1200 X84.567 Y200.532 E64.74455
G0 F6000 X84.001 Y200.532
G1 F1200 X78.935 Y195.466 E64.98284
G0 F6000 X78.369 Y195.466
G1 F1200 X83.435 Y200.532 E65.22113
G0 F6000 X82.87 Y200.532
G1 F1200 X77.803 Y195.466 E65.45944
G0 F6000 X77.237 Y195.466
G1 F1200 X82.304 Y200.532 E65.69776
G0 F6000 X81.738 Y200.532
G1 F1200 X76.672 Y195.466 E65.93604
G0 F6000 X76.106 Y195.466
G1 F1200 X81.173 Y200.532 E66.17436
G0 F6000 X80.607 Y200.532
G1 F1200 X75.54 Y195.466 E66.41267
G0 F6000 X74.975 Y195.466
G1 F1200 X80.041 Y200.532 E66.65096
G0 F6000 X79.475 Y200.532
G1 F1200 X74.409 Y195.466 E66.88925
G0 F6000 X73.843 Y195.466
G1 F1200 X78.91 Y200.532 E67.12756
G0 F6000 X78.344 Y200.532
G1 F1200 X73.278 Y195.466 E67.36585
G0 F6000 X72.712 Y195.466
G1 F1200 X77.778 Y200.532 E67.60414
G0 F6000 X77.213 Y200.532
G1 F1200 X72.146 Y195.466 E67.84245
G0 F6000 X71.581 Y195.466
G1 F1200 X76.647 Y200.532 E68.08074
G0 F6000 X76.081 Y200.532
G1 F1200 X71.015 Y195.466 E68.31903
G0 F6000 X70.449 Y195.466
G1 F1200 X75.516 Y200.532 E68.55734
G0 F6000 X74.95 Y200.532
G1 F1200 X69.884 Y195.466 E68.79563
G0 F6000 X69.318 Y195.466
G1 F1200 X74.384 Y200.532 E69.03392
G0 F6000 X73.819 Y200.532
G1 F1200 X68.752 Y195.466 E69.27223
G0 F6000 X68.187 Y195.466
G1 F1200 X73.253 Y200.532 E69.51052
G0 F6000 X72.687 Y200.532
G1 F1200 X67.621 Y195.466 E69.74881
G0 F6000 X67.055 Y195.466
G1 F1200 X72.122 Y200.532 E69.98712
G0 F6000 X71.556 Y200.532
G1 F1200 X66.489 Y195.466 E70.22544
G0 F6000 X65.924 Y195.466
G1 F1200 X70.99 Y200.532 E70.46373
G0 F6000 X70.425 Y200.532
G1 F1200 X65.358 Y195.466 E70.70204
G0 F6000 X64.792 Y195.466
G1 F1200 X69.859 Y200.532 E70.94035
G0 F6000 X69.293 Y200.532
G1 F1200 X64.227 Y195.466 E71.17864
G0 F6000 X63.661 Y195.466
G1 F1200 X68.727 Y200.532 E71.41693
G0 F6000 X68.162 Y200.532
G1 F1200 X63.095 Y195.466 E71.65524
G0 F6000 X62.53 Y195.466
G1 F1200 X67.596 Y200.532 E71.89353
G0 F6000 X67.03 Y200.532
G1 F1200 X61.964 Y195.466 E72.13182
G0 F6000 X61.398 Y195.466
G1 F1200 X66.465 Y200.532 E72.37013
G0 F6000 X65.899 Y200.532
G1 F1200 X60.833 Y195.466 E72.60842
G0 F6000 X60.267 Y195.466
G1 F1200 X65.333 Y200.532 E72.84671
G0 F6000 X64.768 Y200.532
G1 F1200 X59.701 Y195.466 E73.08502
G0 F6000 X59.136 Y195.466
G1 F1200 X64.202 Y200.532 E73.32331
G0 F6000 X63.636 Y200.532
G1 F1200 X58.57 Y195.466 E73.5616
G0 F6000 X58.004 Y195.466
G1 F1200 X63.071 Y200.532 E73.79991
G0 F6000 X62.505 Y200.532
G1 F1200 X57.438 Y195.466 E74.03823
G0 F6000 X56.873 Y195.466
G1 F1200 X61.939 Y200.532 E74.27652
G0 F6000 X61.374 Y200.532
G1 F1200 X56.307 Y195.466 E74.51483
G0 F6000 X55.741 Y195.466
G1 F1200 X60.808 Y200.532 E74.75314
G0 F6000 X60.242 Y200.532
G1 F1200 X55.176 Y195.466 E74.99143
G0 F6000 X54.61 Y195.466
G1 F1200 X59.676 Y200.532 E75.22972
G0 F6000 X59.111 Y200.532
G1 F1200 X54.044 Y195.466 E75.46803
G0 F6000 X53.479 Y195.466
G1 F1200 X58.545 Y200.532 E75.70632
G0 F6000 X57.979 Y200.532
G1 F1200 X52.913 Y195.466 E75.94461
G0 F6000 X52.347 Y195.466
G1 F1200 X57.414 Y200.532 E76.18292
G0 F6000 X56.848 Y200.532
G1 F1200 X51.782 Y195.466 E76.42121
G0 F6000 X51.216 Y195.466
G1 F1200 X56.282 Y200.532 E76.6595
G0 F6000 X55.717 Y200.532
G1 F1200 X50.65 Y195.466 E76.89781
G0 F6000 X50.085 Y195.466
G1 F1200 X55.151 Y200.532 E77.1361
G0 F6000 X54.585 Y200.532
G1 F1200 X49.519 Y195.466 E77.37439
G0 F6000 X48.953 Y195.466
G1 F1200 X54.02 Y200.532 E77.6127
G0 F6000 X53.454 Y200.532
G1 F1200 X48.388 Y195.466 E77.85099
G0 F6000 X47.822 Y195.466
G1 F1200 X52.888 Y200.532 E78.08928
G0 F6000 X52.323 Y200.532
G1 F1200 X47.256 Y195.466 E78.3276
G0 F6000 X46.69 Y195.466
G1 F1200 X51.757 Y200.532 E78.56591
G0 F6000 X51.191 Y200.532
G1 F1200 X46.125 Y195.466 E78.8042
G0 F6000 X45.559 Y195.466
G1 F1200 X50.626 Y200.532 E79.04251
G0 F6000 X50.06 Y200.532
G1 F1200 X44.993 Y195.466 E79.28082
G0 F6000 X44.428 Y195.466
G1 F1200 X49.494 Y200.532 E79.51911
G0 F6000 X48.928 Y200.532
G1 F1200 X43.862 Y195.466 E79.7574
G0 F6000 X43.296 Y195.466
G1 F1200 X48.363 Y200.532 E79.99571
G0 F6000 X47.797 Y200.532
G1 F1200 X42.731 Y195.466 E80.234
G0 F6000 X42.165 Y195.466
G1 F1200 X47.231 Y200.532 E80.47229
G0 F6000 X46.666 Y200.532
G1 F1200 X41.599 Y195.466 E80.7106
G0 F6000 X41.034 Y195.466
G1 F1200 X46.1 Y200.532 E80.94889
G0 F6000 X45.534 Y200.532
G1 F1200 X40.468 Y195.466 E81.18718
G0 F6000 X39.902 Y195.466
G1 F1200 X44.969 Y200.532 E81.42549
G0 F6000 X44.403 Y200.532
G1 F1200 X39.337 Y195.466 E81.66378
G0 F6000 X38.771 Y195.466
G1 F1200 X43.837 Y200.532 E81.90207
G0 F6000 X43.272 Y200.532
G1 F1200 X38.205 Y195.466 E82.14039
G0 F6000 X37.64 Y195.466
G1 F1200 X42.706 Y200.532 E82.37867
G0 F6000 X42.14 Y200.532
G1 F1200 X37.074 Y195.466 E82.61696
G0 F6000 X36.508 Y195.466
G1 F1200 X41.575 Y200.532 E82.85528
G0 F6000 X41.009 Y200.532
G1 F1200 X35.942 Y195.466 E83.09359
G0 F6000 X35.377 Y195.466
G1 F1200 X40.443 Y200.532 E83.33188
G0 F6000 X39.877 Y200.532
G1 F1200 X34.811 Y195.466 E83.57017
G0 F6000 X34.245 Y195.466
G1 F1200 X39.312 Y200.532 E83.80848
G0 F6000 X38.746 Y200.532
G1 F1200 X33.68 Y195.466 E84.04677
G0 F6000 X33.114 Y195.466
G1 F1200 X38.18 Y200.532 E84.28506
G0 F6000 X37.615 Y200.532
G1 F1200 X32.548 Y195.466 E84.52337
G0 F6000 X31.983 Y195.466
G1 F1200 X37.049 Y200.532 E84.76166
G0 F6000 X36.483 Y200.532
G1 F1200 X31.417 Y195.466 E84.99995
G0 F6000 X30.851 Y195.466
G1 F1200 X35.918 Y200.532 E85.23826
G0 F6000 X35.352 Y200.532
G1 F1200 X30.286 Y195.466 E85.47655
G0 F6000 X29.72 Y195.466
G1 F1200 X34.786 Y200.532 E85.71484
G0 F6000 X34.221 Y200.532
G1 F1200 X29.154 Y195.466 E85.95315
G0 F6000 X28.589 Y195.466
G1 F1200 X33.655 Y200.532 E86.19144
G0 F6000 X33.089 Y200.532
G1 F1200 X28.023 Y195.466 E86.42973
G0 F6000 X27.457 Y195.466
G1 F1200 X32.524 Y200.532 E86.66804
G0 F6000 X31.958 Y200.532
G1 F1200 X26.891 Y195.466 E86.90636
G0 F6000 X26.326 Y195.466
G1 F1200 X31.392 Y200.532 E87.14465
G0 F6000 X30.827 Y200.532
G1 F1200 X25.76 Y195.466 E87.38296
G0 F6000 X25.194 Y195.466
G1 F1200 X30.261 Y200.532 E87.62127
G0 F6000 X29.695 Y200.532
G1 F1200 X24.629 Y195.466 E87.85956
G0 F6000 X24.063 Y195.466
G1 F1200 X29.129 Y200.532 E88.09785
G0 F6000 X28.564 Y200.532
G1 F1200 X23.497 Y195.466 E88.33616
G0 F6000 X22.932 Y195.466
G1 F1200 X27.998 Y200.532 E88.57445
G0 F6000 X27.432 Y200.532
G1 F1200 X22.366 Y195.466 E88.81274
G0 F6000 X21.8 Y195.466
G1 F1200 X26.867 Y200.532 E89.05105
G0 F6000 X26.301 Y200.532
G1 F1200 X21.235 Y195.466 E89.28934
G0 F6000 X20.669 Y195.466
G1 F1200 X25.735 Y200.532 E89.52763
G0 F6000 X25.17 Y200.532
G1 F1200 X20.103 Y195.466 E89.76594
G0 F6000 X19.538 Y195.466
G1 F1200 X24.604 Y200.532 E90.00423
G0 F6000 X24.038 Y200.532
G1 F1200 X18.972 Y195.466 E90.24252
G0 F6000 X18.406 Y195.466
G1 F1200 X23.473 Y200.532 E90.48083
G0 F6000 X22.907 Y200.532
G1 F1200 X17.841 Y195.466 E90.71912
G0 F6000 X17.275 Y195.466
G1 F1200 X22.341 Y200.532 E90.95741
G0 F6000 X21.776 Y200.532
