;FLAVOR:Marlin
;TIME:27847
;Filament used: 14.4667m
;Layer height: 0.16
;MINX:9.335
;MINY:18.116
;MINZ:0.2
;MAXX:210.653
;MAXY:202.737
;MAXZ:2.76
;Generated with Cura_SteamEngine 4.12.0
M140 S55
M105
M190 S55
M104 S195
M105
M109 S195
M82 ;absolute extrusion mode
; Ender 3 Custom Start G-code
G92 E0 ; Reset Extruder
G28 ; Home all axes
G1 Z2.0 F3000 ; Move Z Axis up little to prevent scratching of Heat Bed
G1 X0.1 Y20 Z0.3 F5000.0 ; Move to start position
G1 X0.1 Y200.0 Z0.3 F1500.0 E15 ; Draw the first line
G1 X0.4 Y200.0 Z0.3 F5000.0 ; Move to side a little
G1 X0.4 Y20 Z0.3 F1500.0 E30 ; Draw the second line
G92 E0 ; Reset Extruder
G1 Z2.0 F3000 ; Move Z Axis up little to prevent scratching of Heat Bed
G1 X5 Y20 Z0.3 F5000.0 ; Move over to prevent blob squish
G92 E0
G92 E0
G1 F1500 E-5
;LAYER_COUNT:17
;LAYER:0
M107
;MESH:COVERS_A.STL
G0 F6000 X163 Y201.084 Z0.2
;TYPE:WALL-INNER
G1 F1500 E0
G1 F1200 X11 Y201.083 E5.05554
G1 X11 Y194.916 E5.26066
G1 X163 Y194.917 E10.3162
G1 X163 Y201.084 E10.52131
G0 F6000 X163.4 Y201.484
G1 F1200 X10.6 Y201.483 E15.60346
G1 X10.6 Y194.516 E15.83518
G1 X163.4 Y194.517 E20.91733
G1 X163.4 Y201.484 E21.14906
G0 F6000 X163.8 Y201.884
;TYPE:WALL-OUTER
G1 F1200 X10.2 Y201.883 E26.25781
G1 X10.2 Y194.116 E26.51614
G1 X163.8 Y194.117 E31.6249
G1 X163.8 Y201.884 E31.88323
G0 F6000 X163.53 Y201.614
G0 X162.609 Y200.973
G0 X162.61 Y200.694
;TYPE:SKIN
G1 F1200 X11.39 Y200.693 E36.91283
G1 X11.39 Y195.306 E37.092
G1 X162.61 Y195.307 E42.1216
G1 X162.61 Y200.694 E42.30077
G0 F6000 X162.609 Y200.973
G0 X162.89 Y195.825
G0 X162.45 Y195.825
G1 F1200 X162.09 Y195.466 E42.31768
G0 F6000 X161.525 Y195.466
G1 F1200 X162.45 Y196.391 E42.36119
G0 F6000 X162.45 Y196.956
G1 F1200 X160.959 Y195.466 E42.4313
G0 F6000 X160.393 Y195.466
G1 F1200 X162.45 Y197.522 E42.52803
G0 F6000 X162.45 Y198.088
G1 F1200 X159.828 Y195.466 E42.65136
G0 F6000 X159.262 Y195.466
G1 F1200 X162.45 Y198.653 E42.80129
G0 F6000 X162.45 Y199.219
G1 F1200 X158.696 Y195.466 E42.97785
G0 F6000 X158.13 Y195.466
G1 F1200 X162.45 Y199.785 E43.18102
G0 F6000 X162.45 Y200.35
G1 F1200 X157.565 Y195.466 E43.41077
G0 F6000 X156.999 Y195.466
G1 F1200 X162.066 Y200.532 E43.64909
G0 F6000 X161.5 Y200.532
G1 F1200 X156.433 Y195.466 E43.8874
G0 F6000 X155.868 Y195.466
G1 F1200 X160.934 Y200.532 E44.12569
G0 F6000 X160.368 Y200.532
G1 F1200 X155.302 Y195.466 E44.36398
G0 F6000 X154.736 Y195.466
G1 F1200 X159.803 Y200.532 E44.60229
G0 F6000 X159.237 Y200.532
G1 F1200 X154.171 Y195.466 E44.84058
G0 F6000 X153.605 Y195.466
G1 F1200 X158.671 Y200.532 E45.07887
G0 F6000 X158.106 Y200.532
G1 F1200 X153.039 Y195.466 E45.31718
G0 F6000 X152.474 Y195.466
G1 F1200 X157.54 Y200.532 E45.55547
G0 F6000 X156.974 Y200.532
G1 F1200 X151.908 Y195.466 E45.79376
G0 F6000 X151.342 Y195.466
G1 F1200 X156.409 Y200.532 E46.03207
G0 F6000 X155.843 Y200.532
G1 F1200 X150.777 Y195.466 E46.27036
G0 F6000 X150.211 Y195.466
G1 F1200 X155.277 Y200.532 E46.50865
G0 F6000 X154.712 Y200.532
G1 F1200 X149.645 Y195.466 E46.74696
G0 F6000 X149.08 Y195.466
G1 F1200 X154.146 Y200.532 E46.98525
G0 F6000 X153.58 Y200.532
G1 F1200 X148.514 Y195.466 E47.22354
G0 F6000 X147.948 Y195.466
G1 F1200 X153.015 Y200.532 E47.46185
G0 F6000 X152.449 Y200.532
G1 F1200 X147.382 Y195.466 E47.70017
G0 F6000 X146.817 Y195.466
G1 F1200 X151.883 Y200.532 E47.93845
G0 F6000 X151.318 Y200.532
G1 F1200 X146.251 Y195.466 E48.17677
G0 F6000 X145.685 Y195.466
G1 F1200 X150.752 Y200.532 E48.41508
G0 F6000 X150.186 Y200.532
G1 F1200 X145.12 Y195.466 E48.65337
G0 F6000 X144.554 Y195.466
G1 F1200 X149.62 Y200.532 E48.89166
G0 F6000 X149.055 Y200.532
G1 F1200 X143.988 Y195.466 E49.12997
G0 F6000 X143.423 Y195.466
G1 F1200 X148.489 Y200.532 E49.36826
G0 F6000 X147.923 Y200.532
G1 F1200 X142.857 Y195.466 E49.60655
G0 F6000 X142.291 Y195.466
G1 F1200 X147.358 Y200.532 E49.84486
G0 F6000 X146.792 Y200.532
G1 F1200 X141.726 Y195.466 E50.08315
G0 F6000 X141.16 Y195.466
G1 F1200 X146.226 Y200.532 E50.32144
G0 F6000 X145.661 Y200.532
G1 F1200 X140.594 Y195.466 E50.55975
G0 F6000 X140.029 Y195.466
G1 F1200 X145.095 Y200.532 E50.79804
G0 F6000 X144.529 Y200.532
G1 F1200 X139.463 Y195.466 E51.03633
G0 F6000 X138.897 Y195.466
G1 F1200 X143.964 Y200.532 E51.27464
G0 F6000 X143.398 Y200.532
G1 F1200 X138.332 Y195.466 E51.51293
G0 F6000 X137.766 Y195.466
G1 F1200 X142.832 Y200.532 E51.75122
G0 F6000 X142.267 Y200.532
G1 F1200 X137.2 Y195.466 E51.98953
G0 F6000 X136.634 Y195.466
G1 F1200 X141.701 Y200.532 E52.22785
G0 F6000 X141.135 Y200.532
G1 F1200 X136.069 Y195.466 E52.46614
G0 F6000 X135.503 Y195.466
G1 F1200 X140.569 Y200.532 E52.70442
G0 F6000 X140.004 Y200.532
G1 F1200 X134.937 Y195.466 E52.94274
G0 F6000 X134.372 Y195.466
G1 F1200 X139.438 Y200.532 E53.18103
G0 F6000 X138.872 Y200.532
G1 F1200 X133.806 Y195.466 E53.41932
G0 F6000 X133.24 Y195.466
G1 F1200 X138.307 Y200.532 E53.65763
G0 F6000 X137.741 Y200.532
G1 F1200 X132.675 Y195.466 E53.89592
G0 F6000 X132.109 Y195.466
G1 F1200 X137.175 Y200.532 E54.13421
G0 F6000 X136.61 Y200.532
G1 F1200 X131.543 Y195.466 E54.37252
G0 F6000 X130.978 Y195.466
G1 F1200 X136.044 Y200.532 E54.61081
G0 F6000 X135.478 Y200.532
G1 F1200 X130.412 Y195.466 E54.8491
G0 F6000 X129.846 Y195.466
G1 F1200 X134.913 Y200.532 E55.08741
G0 F6000 X134.347 Y200.532
G1 F1200 X129.281 Y195.466 E55.3257
G0 F6000 X128.715 Y195.466
G1 F1200 X133.781 Y200.532 E55.56399
G0 F6000 X133.216 Y200.532
G1 F1200 X128.149 Y195.466 E55.8023
G0 F6000 X127.583 Y195.466
G1 F1200 X132.65 Y200.532 E56.04061
G0 F6000 X132.084 Y200.532
G1 F1200 X127.018 Y195.466 E56.2789
G0 F6000 X126.452 Y195.466
G1 F1200 X131.519 Y200.532 E56.51721
G0 F6000 X130.953 Y200.532
G1 F1200 X125.886 Y195.466 E56.75553
G0 F6000 X125.321 Y195.466
G1 F1200 X130.387 Y200.532 E56.99382
G0 F6000 X129.821 Y200.532
G1 F1200 X124.755 Y195.466 E57.23211
G0 F6000 X124.189 Y195.466
G1 F1200 X129.256 Y200.532 E57.47042
G0 F6000 X128.69 Y200.532
G1 F1200 X123.624 Y195.466 E57.70871
G0 F6000 X123.058 Y195.466
G1 F1200 X128.124 Y200.532 E57.947
G0 F6000 X127.559 Y200.532
G1 F1200 X122.492 Y195.466 E58.18531
G0 F6000 X121.927 Y195.466
G1 F1200 X126.993 Y200.532 E58.4236
G0 F6000 X126.427 Y200.532
G1 F1200 X121.361 Y195.466 E58.66189
G0 F6000 X120.795 Y195.466
G1 F1200 X125.862 Y200.532 E58.9002
G0 F6000 X125.296 Y200.532
G1 F1200 X120.23 Y195.466 E59.13849
G0 F6000 X119.664 Y195.466
G1 F1200 X124.73 Y200.532 E59.37678
G0 F6000 X124.165 Y200.532
G1 F1200 X119.098 Y195.466 E59.61509
G0 F6000 X118.533 Y195.466
G1 F1200 X123.599 Y200.532 E59.85338
G0 F6000 X123.033 Y200.532
G1 F1200 X117.967 Y195.466 E60.09167
G0 F6000 X117.401 Y195.466
G1 F1200 X122.468 Y200.532 E60.32998
G0 F6000 X121.902 Y200.532
G1 F1200 X116.835 Y195.466 E60.56829
G0 F6000 X116.27 Y195.466
G1 F1200 X121.336 Y200.532 E60.80658
G0 F6000 X120.771 Y200.532
G1 F1200 X115.704 Y195.466 E61.0449
G0 F6000 X115.138 Y195.466
G1 F1200 X120.205 Y200.532 E61.28321
G0 F6000 X119.639 Y200.532
G1 F1200 X114.573 Y195.466 E61.5215
G0 F6000 X114.007 Y195.466
G1 F1200 X119.073 Y200.532 E61.75979
G0 F6000 X118.508 Y200.532
G1 F1200 X113.441 Y195.466 E61.9981
G0 F6000 X112.876 Y195.466
G1 F1200 X117.942 Y200.532 E62.23639
G0 F6000 X117.376 Y200.532
G1 F1200 X112.31 Y195.466 E62.47468
G0 F6000 X111.744 Y195.466
G1 F1200 X116.811 Y200.532 E62.71299
G0 F6000 X116.245 Y200.532
G1 F1200 X111.179 Y195.466 E62.95128
G0 F6000 X110.613 Y195.466
G1 F1200 X115.679 Y200.532 E63.18957
G0 F6000 X115.114 Y200.532
G1 F1200 X110.047 Y195.466 E63.42788
G0 F6000 X109.482 Y195.466
G1 F1200 X114.548 Y200.532 E63.66617
G0 F6000 X113.982 Y200.532
G1 F1200 X108.916 Y195.466 E63.90446
G0 F6000 X108.35 Y195.466
G1 F1200 X113.417 Y200.532 E64.14277
G0 F6000 X112.851 Y200.532
G1 F1200 X107.784 Y195.466 E64.38108
G0 F6000 X107.219 Y195.466
G1 F1200 X112.285 Y200.532 E64.61937
G0 F6000 X111.72 Y200.532
G1 F1200 X106.653 Y195.466 E64.85769
G0 F6000 X106.087 Y195.466
G1 F1200 X111.154 Y200.532 E65.096
G0 F6000 X110.588 Y200.532
G1 F1200 X105.522 Y195.466 E65.33429
G0 F6000 X104.956 Y195.466
G1 F1200 X110.022 Y200.532 E65.57258
G0 F6000 X109.457 Y200.532
G1 F1200 X104.39 Y195.466 E65.81089
G0 F6000 X103.825 Y195.466
G1 F1200 X108.891 Y200.532 E66.04918
G0 F6000 X108.325 Y200.532
G1 F1200 X103.259 Y195.466 E66.28747
G0 F6000 X102.693 Y195.466
G1 F1200 X107.76 Y200.532 E66.52578
G0 F6000 X107.194 Y200.532
G1 F1200 X102.128 Y195.466 E66.76407
G0 F6000 X101.562 Y195.466
G1 F1200 X106.628 Y200.532 E67.00236
G0 F6000 X106.063 Y200.532
G1 F1200 X100.996 Y195.466 E67.24067
G0 F6000 X100.431 Y195.466
G1 F1200 X105.497 Y200.532 E67.47896
G0 F6000 X104.931 Y200.532
G1 F1200 X99.865 Y195.466 E67.71725
G0 F6000 X99.299 Y195.466
G1 F1200 X104.366 Y200.532 E67.95556
G0 F6000 X103.8 Y200.532
G1 F1200 X98.734 Y195.466 E68.19385
G0 F6000 X98.168 Y195.466
G1 F1200 X103.234 Y200.532 E68.43214
G0 F6000 X102.669 Y200.532
G1 F1200 X97.602 Y195.466 E68.67045
G0 F6000 X97.036 Y195.466
G1 F1200 X102.103 Y200.532 E68.90877
G0 F6000 X101.537 Y200.532
G1 F1200 X96.471 Y195.466 E69.14706
G0 F6000 X95.905 Y195.466
G1 F1200 X100.972 Y200.532 E69.38537
G0 F6000 X100.406 Y200.532
G1 F1200 X95.339 Y195.466 E69.62368
G0 F6000 X94.774 Y195.466
G1 F1200 X99.84 Y200.532 E69.86197
G0 F6000 X99.274 Y200.532
G1 F1200 X94.208 Y195.466 E70.10026
G0 F6000 X93.642 Y195.466
G1 F1200 X98.709 Y200.532 E70.33857
G0 F6000 X98.143 Y200.532
G1 F1200 X93.077 Y195.466 E70.57686
G0 F6000 X92.511 Y195.466
G1 F1200 X97.577 Y200.532 E70.81515
G0 F6000 X97.012 Y200.532
G1 F1200 X91.945 Y195.466 E71.05346
G0 F6000 X91.38 Y195.466
G1 F1200 X96.446 Y200.532 E71.29175
G0 F6000 X95.88 Y200.532
G1 F1200 X90.814 Y195.466 E71.53004
G0 F6000 X90.248 Y195.466
G1 F1200 X95.315 Y200.532 E71.76835
G0 F6000 X94.749 Y200.532
G1 F1200 X89.683 Y195.466 E72.00664
G0 F6000 X89.117 Y195.466
G1 F1200 X94.183 Y200.532 E72.24493
G0 F6000 X93.618 Y200.532
G1 F1200 X88.551 Y195.466 E72.48324
G0 F6000 X87.986 Y195.466
G1 F1200 X93.052 Y200.532 E72.72153
G0 F6000 X92.486 Y200.532
G1 F1200 X87.42 Y195.466 E72.95982
G0 F6000 X86.854 Y195.466
G1 F1200 X91.921 Y200.532 E73.19813
G0 F6000 X91.355 Y200.532
G1 F1200 X86.288 Y195.466 E73.43645
G0 F6000 X85.723 Y195.466
G1 F1200 X90.789 Y200.532 E73.67474
G0 F6000 X90.223 Y200.532
G1 F1200 X85.157 Y195.466 E73.91303
G0 F6000 X84.591 Y195.466
G1 F1200 X89.658 Y200.532 E74.15134
G0 F6000 X89.092 Y200.532
G1 F1200 X84.026 Y195.466 E74.38963
G0 F6000 X83.46 Y195.466
G1 F1200 X88.526 Y200.532 E74.62792
G0 F6000 X87.961 Y200.532
G1 F1200 X82.894 Y195.466 E74.86623
G0 F6000 X82.329 Y195.466
G1 F1200 X87.395 Y200.532 E75.10452
G0 F6000 X86.829 Y200.532
G1 F1200 X81.763 Y195.466 E75.34281
G0 F6000 X81.197 Y195.466
G1 F1200 X86.264 Y200.532 E75.58112
G0 F6000 X85.698 Y200.532
G1 F1200 X80.632 Y195.466 E75.81941
G0 F6000 X80.066 Y195.466
G1 F1200 X85.132 Y200.532 E76.0577
G0 F6000 X84.567 Y200.532
G1 F1200 X79.5 Y195.466 E76.29601
G0 F6000 X78.935 Y195.466
G1 F1200 X84.001 Y200.532 E76.5343
G0 F6000 X83.435 Y200.532
G1 F1200 X78.369 Y195.466 E76.77259
G0 F6000 X77.803 Y195.466
G1 F1200 X82.87 Y200.532 E77.0109
G0 F6000 X82.304 Y200.532
G1 F1200 X77.237 Y195.466 E77.24921
G0 F6000 X76.672 Y195.466
G1 F1200 X81.738 Y200.532 E77.4875
G0 F6000 X81.173 Y200.532
G1 F1200 X76.106 Y195.466 E77.72582
G0 F6000 X75.54 Y195.466
G1 F1200 X80.607 Y200.532 E77.96413
G0 F6000 X80.041 Y200.532
G1 F1200 X74.975 Y195.466 E78.20242
G0 F6000 X74.409 Y195.466
G1 F1200 X79.475 Y200.532 E78.44071
G0 F6000 X78.91 Y200.532
G1 F1200 X73.843 Y195.466 E78.67902
G0 F6000 X73.278 Y195.466
G1 F1200 X78.344 Y200.532 E78.91731
G0 F6000 X77.778 Y200.532
G1 F1200 X72.712 Y195.466 E79.1556
G0 F6000 X72.146 Y195.466
G1 F1200 X77.213 Y200.532 E79.39391
G0 F6000 X76.647 Y200.532
G1 F1200 X71.581 Y195.466 E79.6322
G0 F6000 X71.015 Y195.466
G1 F1200 X76.081 Y200.532 E79.87049
G0 F6000 X75.516 Y200.532
G1 F1200 X70.449 Y195.466 E80.1088
G0 F6000 X69.884 Y195.466
G1 F1200 X74.95 Y200.532 E80.34709
G0 F6000 X74.384 Y200.532
G1 F1200 X69.318 Y195.466 E80.58538
G0 F6000 X68.752 Y195.466
G1 F1200 X73.819 Y200.532 E80.82369
G0 F6000 X73.253 Y200.532
G1 F1200 X68.187 Y195.466 E81.06198
G0 F6000 X67.621 Y195.466
G1 F1200 X72.687 Y200.532 E81.30027
G0 F6000 X72.122 Y200.532
G1 F1200 X67.055 Y195.466 E81.53858
G0 F6000 X66.489 Y195.466
G1 F1200 X71.556 Y200.532 E81.7769
G0 F6000 X70.99 Y200.532
G1 F1200 X65.924 Y195.466 E82.01518
G0 F6000 X65.358 Y195.466
G1 F1200 X70.425 Y200.532 E82.2535
G0 F6000 X69.859 Y200.532
G1 F1200 X64.792 Y195.466 E82.49181
G0 F6000 X64.227 Y195.466
G1 F1200 X69.293 Y200.532 E82.7301
G0 F6000 X68.727 Y200.532
G1 F1200 X63.661 Y195.466 E82.96839
G0 F6000 X63.095 Y195.466
G1 F1200 X68.162 Y200.532 E83.2067
G0 F6000 X67.596 Y200.532
G1 F1200 X62.53 Y195.466 E83.44499
G0 F6000 X61.964 Y195.466
G1 F1200 X67.03 Y200.532 E83.68328
G0 F6000 X66.465 Y200.532
G1 F1200 X61.398 Y195.466 E83.92159
G0 F6000 X60.833 Y195.466
G1 F1200 X65.899 Y200.532 E84.15988
G0 F6000 X65.333 Y200.532
G1 F1200 X60.267 Y195.466 E84.39817
G0 F6000 X59.701 Y195.466
G1 F1200 X64.768 Y200.532 E84.63648
G0 F6000 X64.202 Y200.532
G1 F1200 X59.136 Y195.466 E84.87477
G0 F6000 X58.57 Y195.466
G1 F1200 X63.636 Y200.532 E85.11306
G0 F6000 X63.071 Y200.532
G1 F1200 X58.004 Y195.466 E85.35137
G0 F6000 X57.438 Y195.466
G1 F1200 X62.505 Y200.532 E85.58969
G0 F6000 X61.939 Y200.532
G1 F1200 X56.873 Y195.466 E85.82797
G0 F6000 X56.307 Y195.466
G1 F1200 X61.374 Y200.532 E86.06629
G0 F6000 X60.808 Y200.532
G1 F1200 X55.741 Y195.466 E86.3046
G0 F6000 X55.176 Y195.466
G1 F1200 X60.242 Y200.532 E86.54289
G0 F6000 X59.676 Y200.532
G1 F1200 X54.61 Y195.466 E86.78118
G0 F6000 X54.044 Y195.466
G1 F1200 X59.111 Y200.532 E87.01949
G0 F6000 X58.545 Y200.532
G1 F1200 X53.479 Y195.466 E87.25778
G0 F6000 X52.913 Y195.466
G1 F1200 X57.979 Y200.532 E87.49607
G0 F6000 X57.414 Y200.532
G1 F1200 X52.347 Y195.466 E87.73438
G0 F6000 X51.782 Y195.466
G1 F1200 X56.848 Y200.532 E87.97267
G0 F6000 X56.282 Y200.532
G1 F1200 X51.216 Y195.466 E88.21096
G0 F6000 X50.65 Y195.466
G1 F1200 X55.717 Y200.532 E88.44927
G0 F6000 X55.151 Y200.532
G1 F1200 X50.085 Y195.466 E88.68756
G0 F6000 X49.519 Y195.466
G1 F1200 X54.585 Y200.532 E88.92585
G0 F6000 X54.02 Y200.532
G1 F1200 X48.953 Y195.466 E89.16416
G0 F6000 X48.388 Y195.466
G1 F1200 X53.454 Y200.532 E89.40245
G0 F6000 X52.888 Y200.532
G1 F1200 X47.822 Y195.466 E89.64074
G0 F6000 X47.256 Y195.466
G1 F1200 X52.323 Y200.532 E89.87905
G0 F6000 X51.757 Y200.532
G1 F1200 X46.69 Y195.466 E90.11737
G0 F6000 X46.125 Y195.466
G1 F1200 X51.191 Y200.532 E90.35566
G0 F6000 X50.626 Y200.532
G1 F1200 X45.559 Y195.466 E90.59397
G0 F6000 X44.993 Y195.466
G1 F1200 X50.06 Y200.532 E90.83228
G0 F6000 X49.494 Y200.532
G1 F1200 X44.428 Y195.466 E91.07057
G0 F6000 X43.862 Y195.466
G1 F1200 X48.928 Y200.532 E91.30886
G0 F6000 X48.363 Y200.532
G1 F1200 X43.296 Y195.466 E91.54717
G0 F6000 X42.731 Y195.466
G1 F1200 X47.797 Y200.532 E91.78546
G0 F6000 X47.231 Y200.532
G1 F1200 X42.165 Y195.466 E92.02375
G0 F6000 X41.599 Y195.466
G1 F1200 X46.666 Y200.532 E92.26206
G0 F6000 X46.1 Y200.532
G1 F1200 X41.034 Y195.466 E92.50035
G0 F6000 X40.468 Y195.466
G1 F1200 X45.534 Y200.532 E92.73864
G0 F6000 X44.969 Y200.532
G1 F1200 X39.902 Y195.466 E92.97695
G0 F6000 X39.337 Y195.466
G1 F1200 X44.403 Y200.532 E93.21524
G0 F6000 X43.837 Y200.532
G1 F1200 X38.771 Y195.466 E93.45353
G0 F6000 X38.205 Y195.466
G1 F1200 X43.272 Y200.532 E93.69184
G0 F6000 X42.706 Y200.532
G1 F1200 X37.64 Y195.466 E93.93013
G0 F6000 X37.074 Y195.466
G1 F1200 X42.14 Y200.532 E94.16842
G0 F6000 X41.575 Y200.532
G1 F1200 X36.508 Y195.466 E94.40674
G0 F6000 X35.942 Y195.466
G1 F1200 X41.009 Y200.532 E94.64505
G0 F6000 X40.443 Y200.532
G1 F1200 X35.377 Y195.466 E94.88334
G0 F6000 X34.811 Y195.466
G1 F1200 X39.877 Y200.532 E95.12163
G0 F6000 X39.312 Y200.532
G1 F1200 X34.245 Y195.466 E95.35994
G0 F6000 X33.68 Y195.466
G1 F1200 X38.746 Y200.532 E95.59823
G0 F6000 X38.18 Y200.532
G1 F1200 X33.114 Y195.466 E95.83652
G0 F6000 X32.548 Y195.466
G1 F1200 X37.615 Y200.532 E96.07483
G0 F6000 X37.049 Y200.532
