;FLAVOR:Marlin
;TIME:2855
;Filament used: 1.42815m
;Layer height: 0.2
;MINX:90.201
;MINY:90.55
;MINZ:0.2
;MAXX:129.799
;MAXY:129.45
;MAXZ:20.6
;Generated with Cura_SteamEngine 4.12.0
M140 S55
M105
M190 S55
M104 S195
M105
M109 S195
M82 ;absolute extrusion mode
; Ender 3 Custom Start G-code
G92 E0 ; Reset Extruder
G28 ; Home all axes
G1 Z2.0 F3000 ; Move Z Axis up little to prevent scratching of Heat Bed
G1 X0.1 Y20 Z0.3 F5000.0 ; Move to start position
G1 X0.1 Y200.0 Z0.3 F1500.0 E15 ; Draw the first line
G1 X0.4 Y200.0 Z0.3 F5000.0 ; Move to side a little
G1 X0.4 Y20 Z0.3 F1500.0 E30 ; Draw the second line
G92 E0 ; Reset Extruder
G1 Z2.0 F3000 ; Move Z Axis up little to prevent scratching of Heat Bed
G1 X5 Y20 Z0.3 F5000.0 ; Move over to prevent blob squish
G92 E0
G92 E0
G1 F1500 E-5
;LAYER_COUNT:103
;LAYER:0
M107
;MESH:Cr-10_Extruder_knob_V2.stl
G0 F6000 X106.501 Y106.946 Z0.2
;TYPE:WALL-INNER
G1 F1500 E0
G1 F1200 X107.278 Y106.845 E0.02606
G1 X107.906 Y106.584 E0.04868
G1 X108.634 Y106.244 E0.0754
G1 X109.304 Y106.065 E0.09847
G1 X109.996 Y106.004 E0.12158
G1 X110.701 Y106.065 E0.14511
G1 X111.361 Y106.243 E0.16785
G1 X112.102 Y106.587 E0.19502
G1 X112.726 Y106.845 E0.21748
G1 X113.505 Y106.946 E0.2436
G1 X114.278 Y106.846 E0.26953
G1 X114.955 Y106.563 E0.29393
G1 X119.948 Y103.68 E0.4857
G1 X120.527 Y103.233 E0.51003
G1 X121.008 Y102.597 E0.53655
G1 X121.306 Y101.858 E0.56305
G1 X121.4 Y101.066 E0.58958
G1 X121.281 Y100.275 E0.61618
G1 X120.957 Y99.546 E0.64272
G1 X120.481 Y98.958 E0.66788
G1 X119.196 Y97.869 E0.7239
G1 X117.833 Y96.948 E0.77861
G1 X116.379 Y96.178 E0.83334
G1 X114.852 Y95.571 E0.88799
G1 X113.266 Y95.132 E0.94272
G1 X111.642 Y94.867 E0.99745
G1 X110 Y94.777 E1.05215
G1 X108.358 Y94.867 E1.10684
G1 X106.734 Y95.132 E1.16157
G1 X105.148 Y95.571 E1.21631
G1 X103.621 Y96.178 E1.27096
G1 X102.167 Y96.948 E1.32568
G1 X100.804 Y97.869 E1.3804
G1 X99.519 Y98.958 E1.43642
G1 X99.043 Y99.546 E1.46158
G1 X98.719 Y100.275 E1.48811
G1 X98.6 Y101.066 E1.51472
G1 X98.694 Y101.858 E1.54125
G1 X98.992 Y102.597 E1.56775
G1 X99.473 Y103.233 E1.59427
G1 X100.052 Y103.68 E1.6186
G1 X105.003 Y106.538 E1.80874
G1 X105.08 Y106.578 E1.81162
G1 X105.722 Y106.845 E1.83475
G1 X106.501 Y106.946 E1.86087
G0 F6000 X106.501 Y106.543
G1 F1200 X107.174 Y106.455 E1.88345
G1 X107.745 Y106.218 E1.90401
G1 X108.497 Y105.867 E1.93161
G1 X109.235 Y105.67 E1.95702
G1 X110.001 Y105.603 E1.98259
G1 X110.767 Y105.669 E2.00817
G1 X111.502 Y105.867 E2.03348
G1 X112.263 Y106.221 E2.0614
G1 X112.83 Y106.455 E2.0818
G1 X113.505 Y106.543 E2.10444
G1 X114.173 Y106.456 E2.12685
G1 X114.777 Y106.204 E2.14861
G1 X119.725 Y103.347 E2.33865
G1 X120.24 Y102.949 E2.3603
G1 X120.657 Y102.398 E2.38328
G1 X120.915 Y101.758 E2.40623
G1 X120.996 Y101.072 E2.42921
G1 X120.893 Y100.388 E2.45221
G1 X120.613 Y99.757 E2.47517
G1 X120.194 Y99.239 E2.49733
G1 X118.954 Y98.188 E2.5514
G1 X117.627 Y97.291 E2.60467
G1 X116.211 Y96.542 E2.65795
G1 X114.724 Y95.951 E2.71117
G1 X113.18 Y95.523 E2.76446
G1 X111.599 Y95.265 E2.81774
G1 X110 Y95.178 E2.871
G1 X108.401 Y95.265 E2.92426
G1 X106.82 Y95.523 E2.97754
G1 X105.276 Y95.951 E3.03083
G1 X103.789 Y96.542 E3.08405
G1 X102.373 Y97.291 E3.13733
G1 X101.046 Y98.188 E3.19061
G1 X99.806 Y99.239 E3.24467
G1 X99.387 Y99.757 E3.26683
G1 X99.107 Y100.388 E3.28979
G1 X99.004 Y101.072 E3.3128
G1 X99.085 Y101.758 E3.33577
G1 X99.343 Y102.398 E3.35872
G1 X99.76 Y102.949 E3.38171
G1 X100.275 Y103.347 E3.40335
G1 X105.195 Y106.187 E3.5923
G1 X105.249 Y106.215 E3.59432
G1 X105.826 Y106.455 E3.61511
G1 X106.501 Y106.543 E3.63775
G0 F6000 X106.501 Y106.14
;TYPE:WALL-OUTER
G1 F1200 X107.07 Y106.065 E3.65684
G1 X107.584 Y105.852 E3.67534
G1 X108.36 Y105.49 E3.70382
G1 X109.171 Y105.273 E3.73175
G1 X110.001 Y105.201 E3.75945
G1 X110.832 Y105.273 E3.7872
G1 X111.643 Y105.491 E3.81513
G1 X112.424 Y105.855 E3.84379
G1 X112.934 Y106.065 E3.86213
G1 X113.505 Y106.14 E3.88129
G1 X114.068 Y106.066 E3.90017
G1 X114.599 Y105.845 E3.9193
G1 X119.502 Y103.014 E4.10761
G1 X119.953 Y102.665 E4.12658
G1 X120.306 Y102.199 E4.14602
G1 X120.524 Y101.658 E4.16542
G1 X120.592 Y101.079 E4.18481
G1 X120.505 Y100.501 E4.20425
G1 X120.269 Y99.967 E4.22367
G1 X119.907 Y99.52 E4.2428
G1 X118.712 Y98.507 E4.29491
G1 X117.421 Y97.635 E4.34672
G1 X116.043 Y96.906 E4.39857
G1 X114.596 Y96.331 E4.45036
G1 X113.094 Y95.914 E4.50221
G1 X111.556 Y95.663 E4.55404
G1 X110 Y95.579 E4.60587
G1 X108.444 Y95.663 E4.65769
G1 X106.906 Y95.914 E4.70952
G1 X105.404 Y96.331 E4.76137
G1 X103.957 Y96.906 E4.81316
G1 X102.579 Y97.635 E4.86501
G1 X101.288 Y98.507 E4.91683
G1 X100.093 Y99.52 E4.96893
G1 X99.731 Y99.967 E4.98806
G1 X99.495 Y100.501 E5.00748
G1 X99.408 Y101.079 E5.02692
G1 X99.476 Y101.658 E5.04631
G1 X99.694 Y102.199 E5.06571
G1 X100.047 Y102.665 E5.08515
G1 X100.498 Y103.014 E5.10412
G1 X105.387 Y105.836 E5.29188
G1 X105.418 Y105.852 E5.29304
G1 X105.931 Y106.065 E5.31151
G1 X106.501 Y106.14 E5.33063
G0 F6000 X106.501 Y106.58
G1 F1500 E0.33063
G0 F6000 X109.996 Y106.175
G0 X115.031 Y106.717
G0 X121.473 Y101.902
G0 X120.604 Y98.838
G0 X116.857 Y96.198
G0 X121.007 Y95.856
G0 X121.28 Y96.075
G0 X122.038 Y100.359
G0 X126.053 Y102.032
G0 X126.207 Y102.342
G0 X124.965 Y106.296
G0 X121.917 Y103.995
G0 X114.246 Y108.41
G0 X113.592 Y111.309
G0 X113.311 Y111.912
G0 X110.304 Y116.332
G0 X111.142 Y122.35
G0 X111.394 Y122.947
G0 X111.754 Y123.405
G0 X113.574 Y124.716
;TYPE:WALL-INNER
G1 F1500 E5.33063
G1 F1200 X114.323 Y124.598 E5.35585
G1 X115.909 Y124.029 E5.41189
G1 X116.621 Y123.682 E5.43824
G1 X117.386 Y123.309 E5.46654
G1 X118.78 Y122.435 E5.52127
G1 X120.071 Y121.414 E5.57601
G1 X121.243 Y120.262 E5.63067
G1 X121.908 Y119.45 E5.66558
G1 X122.284 Y118.99 E5.68534
G1 X123.183 Y117.61 E5.74012
G1 X123.926 Y116.145 E5.79475
G1 X124.509 Y114.606 E5.84949
G1 X124.921 Y113.013 E5.90422
G1 X125.159 Y111.387 E5.95888
G1 X125.221 Y109.742 E6.01363
G1 X125.103 Y108.102 E6.06832
G1 X124.803 Y106.445 E6.12432
G1 X124.531 Y105.737 E6.14955
G1 X124.061 Y105.094 E6.17604
G1 X123.436 Y104.596 E6.20262
G1 X122.704 Y104.281 E6.22912
G1 X121.915 Y104.167 E6.25564
G1 X121.123 Y104.268 E6.28219
G1 X120.447 Y104.545 E6.30649
G1 X115.44 Y107.437 E6.49881
G1 X114.873 Y107.873 E6.5226
G1 X114.395 Y108.496 E6.54872
G1 X114.093 Y109.222 E6.57487
G1 X114.005 Y109.895 E6.59744
G1 X113.936 Y110.696 E6.62418
G1 X113.754 Y111.366 E6.64727
G1 X113.46 Y111.998 E6.67046
G1 X113.059 Y112.571 E6.69372
G1 X112.569 Y113.061 E6.71677
G1 X111.905 Y113.527 E6.74375
G1 X111.37 Y113.938 E6.76619
G1 X110.894 Y114.556 E6.79213
G1 X110.593 Y115.287 E6.81843
G1 X110.5 Y116.008 E6.84261
G1 X110.5 Y121.775 E7.03442
G1 X110.597 Y122.499 E7.05871
G1 X110.906 Y123.235 E7.08526
G1 X111.398 Y123.862 E7.11177
G1 X112.039 Y124.339 E7.13834
G1 X112.781 Y124.631 E7.16487
G1 X113.574 Y124.716 E7.19139
G0 F6000 X113.564 Y124.313
G1 F1200 X114.223 Y124.209 E7.21358
G1 X115.753 Y123.66 E7.26765
G1 X117.192 Y122.959 E7.32088
G1 X118.549 Y122.108 E7.37416
G1 X119.806 Y121.114 E7.42746
G1 X120.947 Y119.992 E7.48068
G1 X121.961 Y118.753 E7.53393
G1 X122.836 Y117.41 E7.58725
G1 X123.56 Y115.983 E7.64047
G1 X124.127 Y114.485 E7.69374
G1 X124.528 Y112.934 E7.74702
G1 X124.76 Y111.35 E7.80027
G1 X124.82 Y109.749 E7.85356
G1 X124.706 Y108.152 E7.90681
G1 X124.416 Y106.553 E7.96086
G1 X124.177 Y105.93 E7.98305
G1 X123.77 Y105.373 E8.006
G1 X123.229 Y104.942 E8.029
G1 X122.595 Y104.669 E8.05196
G1 X121.912 Y104.571 E8.07491
G1 X121.226 Y104.658 E8.09791
G1 X120.624 Y104.905 E8.11955
G1 X115.663 Y107.77 E8.3101
G1 X115.158 Y108.158 E8.33128
G1 X114.744 Y108.698 E8.35391
G1 X114.483 Y109.326 E8.37653
G1 X114.403 Y109.938 E8.39706
G1 X114.332 Y110.764 E8.42463
G1 X114.131 Y111.506 E8.4502
G1 X113.809 Y112.197 E8.47556
G1 X113.366 Y112.83 E8.50125
G1 X112.829 Y113.367 E8.52651
G1 X112.142 Y113.849 E8.55442
G1 X111.655 Y114.223 E8.57485
G1 X111.244 Y114.758 E8.59729
G1 X110.983 Y115.391 E8.62006
G1 X110.9 Y116.034 E8.64162
G1 X110.9 Y121.748 E8.83167
G1 X110.986 Y122.393 E8.85331
G1 X111.254 Y123.03 E8.8763
G1 X111.68 Y123.573 E8.89925
G1 X112.235 Y123.986 E8.92226
G1 X112.877 Y124.239 E8.94521
G1 X113.564 Y124.313 E8.9682
G0 F6000 X113.554 Y123.91
;TYPE:WALL-OUTER
G1 F1200 X114.123 Y123.82 E8.98736
G1 X115.597 Y123.291 E9.03944
G1 X116.998 Y122.609 E9.09127
G1 X118.318 Y121.781 E9.1431
G1 X119.541 Y120.814 E9.19495
G1 X120.651 Y119.722 E9.24674
G1 X121.638 Y118.516 E9.29857
G1 X122.489 Y117.21 E9.35042
G1 X123.194 Y115.821 E9.40223
G1 X123.745 Y114.364 E9.45404
G1 X124.135 Y112.855 E9.50588
G1 X124.361 Y111.313 E9.55771
G1 X124.419 Y109.756 E9.60953
G1 X124.309 Y108.202 E9.66135
G1 X124.029 Y106.661 E9.71344
G1 X123.823 Y106.123 E9.7326
G1 X123.479 Y105.652 E9.752
G1 X123.022 Y105.288 E9.77143
G1 X122.486 Y105.057 E9.79085
G1 X121.909 Y104.975 E9.81023
G1 X121.329 Y105.048 E9.82967
G1 X120.801 Y105.265 E9.84866
G1 X115.886 Y108.103 E10.03743
G1 X115.443 Y108.443 E10.056
G1 X115.093 Y108.9 E10.07515
G1 X114.873 Y109.43 E10.09423
G1 X114.801 Y109.981 E10.11272
G1 X114.728 Y110.83 E10.14106
G1 X114.507 Y111.647 E10.16921
G1 X114.158 Y112.396 E10.19669
G1 X113.673 Y113.089 E10.22482
G1 X113.089 Y113.673 E10.25229
G1 X112.379 Y114.172 E10.28116
G1 X111.94 Y114.508 E10.29954
G1 X111.594 Y114.959 E10.31845
G1 X111.373 Y115.495 E10.33773
G1 X111.3 Y116.06 E10.35668
G1 X111.3 Y121.722 E10.545
G1 X111.375 Y122.287 E10.56396
G1 X111.602 Y122.825 E10.58338
G1 X111.962 Y123.284 E10.60278
G1 X112.431 Y123.633 E10.62223
G1 X112.974 Y123.847 E10.64164
G1 X113.554 Y123.91 E10.66104
G0 F6000 X113.564 Y124.349
G0 X116.535 Y123.956
G0 X114.197 Y127.422
G0 X113.856 Y127.501
G0 X110.03 Y125.425
G0 X106.221 Y127.52
G0 X105.88 Y127.443
G0 X103.545 Y123.994
G0 X106.426 Y124.716
;TYPE:WALL-INNER
G1 F1200 X107.219 Y124.631 E10.68757
G1 X107.961 Y124.339 E10.71409
G1 X108.602 Y123.862 E10.74066
G1 X109.094 Y123.235 E10.76717
G1 X109.403 Y122.499 E10.79372
G1 X109.5 Y121.775 E10.81802
G1 X109.5 Y115.993 E11.01033
G1 X109.407 Y115.284 E11.03411
G1 X109.105 Y114.556 E11.06032
G1 X108.627 Y113.933 E11.08644
G1 X108.087 Y113.521 E11.10903
G1 X107.423 Y113.055 E11.13601
G1 X106.943 Y112.573 E11.15864
G1 X106.54 Y111.998 E11.18199
G1 X106.243 Y111.361 E11.20537
G1 X106.065 Y110.699 E11.22817
G1 X105.995 Y109.886 E11.25531
G1 X105.904 Y109.213 E11.2779
G1 X105.601 Y108.489 E11.304
G1 X105.124 Y107.87 E11.32999
G1 X104.553 Y107.433 E11.35391
G1 X99.553 Y104.545 E11.54596
G1 X98.877 Y104.268 E11.57026
G1 X98.085 Y104.167 E11.59681
G1 X97.296 Y104.281 E11.62333
G1 X96.564 Y104.596 E11.64983
G1 X95.939 Y105.094 E11.67641
G1 X95.469 Y105.737 E11.7029
G1 X95.197 Y106.445 E11.72813
G1 X94.897 Y108.102 E11.78413
G1 X94.779 Y109.742 E11.83882
G1 X94.841 Y111.387 E11.89357
G1 X95.079 Y113.013 E11.94823
G1 X95.18 Y113.404 E11.96166
G1 X95.491 Y114.606 E12.00296
G1 X96.074 Y116.145 E12.0577
G1 X96.817 Y117.61 E12.11233
G1 X97.716 Y118.99 E12.16711
G1 X98.132 Y119.498 E12.18895
G1 X98.757 Y120.262 E12.22178
G1 X99.929 Y121.414 E12.27644
G1 X101.22 Y122.435 E12.33118
G1 X102.614 Y123.309 E12.38591
G1 X103.434 Y123.709 E12.41625
G1 X104.091 Y124.029 E12.44056
G1 X105.677 Y124.598 E12.4966
G1 X106.426 Y124.716 E12.52182
G0 F6000 X106.436 Y124.313
G1 F1200 X107.123 Y124.239 E12.5448
G1 X107.765 Y123.986 E12.56775
G1 X108.32 Y123.573 E12.59076
G1 X108.746 Y123.03 E12.61372
G1 X109.014 Y122.393 E12.6367
G1 X109.1 Y121.748 E12.65834
G1 X109.1 Y116.019 E12.84889
G1 X109.017 Y115.388 E12.87006
G1 X108.756 Y114.758 E12.89274
G1 X108.342 Y114.219 E12.91534
G1 X107.851 Y113.844 E12.93589
G1 X107.169 Y113.366 E12.96359
G1 X106.633 Y112.828 E12.98885
G1 X106.191 Y112.197 E13.01448
G1 X105.867 Y111.502 E13.03998
G1 X105.669 Y110.765 E13.06536
G1 X105.597 Y109.93 E13.09324
G1 X105.515 Y109.319 E13.11374
G1 X105.252 Y108.692 E13.13636
G1 X104.839 Y108.156 E13.15886
G1 X104.33 Y107.766 E13.18019
G1 X99.376 Y104.905 E13.37046
G1 X98.774 Y104.658 E13.39211
G1 X98.088 Y104.571 E13.41511
G1 X97.405 Y104.669 E13.43806
G1 X96.771 Y104.942 E13.46101
G1 X96.23 Y105.373 E13.48402
G1 X95.823 Y105.93 E13.50696
G1 X95.584 Y106.553 E13.52916
G1 X95.294 Y108.152 E13.58321
G1 X95.18 Y109.749 E13.63646
G1 X95.24 Y111.35 E13.68975
G1 X95.472 Y112.934 E13.74299
G1 X95.873 Y114.485 E13.79628
G1 X96.44 Y115.983 E13.84955
G1 X97.164 Y117.41 E13.90277
G1 X98.039 Y118.753 E13.95608
G1 X99.053 Y119.992 E14.00933
G1 X100.194 Y121.114 E14.06256
G1 X101.451 Y122.108 E14.11586
G1 X102.808 Y122.959 E14.16913
G1 X104.247 Y123.66 E14.22237
G1 X105.777 Y124.209 E14.27644
G1 X106.436 Y124.313 E14.29863
G0 F6000 X106.446 Y123.91
;TYPE:WALL-OUTER
G1 F1200 X107.026 Y123.847 E14.31803
G1 X107.569 Y123.633 E14.33744
G1 X108.038 Y123.284 E14.35689
G1 X108.398 Y122.825 E14.37629
G1 X108.625 Y122.287 E14.39571
G1 X108.7 Y121.722 E14.41467
G1 X108.7 Y116.045 E14.60348
G1 X108.627 Y115.492 E14.62204
G1 X108.407 Y114.96 E14.64118
G1 X108.057 Y114.505 E14.66028
G1 X107.615 Y114.167 E14.67878
G1 X106.912 Y113.674 E14.70734
G1 X106.323 Y113.083 E14.73509
G1 X105.842 Y112.396 E14.76299
G1 X105.491 Y111.643 E14.79062
G1 X105.273 Y110.831 E14.81858
G1 X105.199 Y109.974 E14.84719
G1 X105.126 Y109.425 E14.86561
G1 X104.903 Y108.895 E14.88474
G1 X104.554 Y108.442 E14.90376
G1 X104.107 Y108.099 E14.9225
G1 X99.199 Y105.265 E15.111
G1 X98.671 Y105.048 E15.12999
G1 X98.091 Y104.975 E15.14943
G1 X97.514 Y105.057 E15.16881
G1 X96.978 Y105.288 E15.18822
G1 X96.521 Y105.652 E15.20766
G1 X96.177 Y106.123 E15.22706
G1 X95.971 Y106.661 E15.24622
G1 X95.691 Y108.202 E15.29831
G1 X95.581 Y109.756 E15.35013
G1 X95.639 Y111.313 E15.40195
G1 X95.865 Y112.855 E15.45378
G1 X96.255 Y114.364 E15.50562
G1 X96.806 Y115.821 E15.55743
G1 X97.511 Y117.21 E15.60924
G1 X98.362 Y118.516 E15.66108
G1 X99.349 Y119.722 E15.71292
G1 X100.459 Y120.814 E15.76471
G1 X101.682 Y121.781 E15.81656
G1 X103.002 Y122.609 E15.86839
G1 X104.403 Y123.291 E15.92021
G1 X105.877 Y123.82 E15.9723
G1 X106.446 Y123.91 E15.99146
G0 F6000 X106.436 Y124.349
G0 X103.545 Y123.994
G0 X105.88 Y127.443
G0 X106.302 Y127.718
;TYPE:WALL-INNER
G1 F1200 X106.191 Y127.695 E15.99523
G1 X105.84 Y127.616 E16.0072
G1 X105.721 Y127.587 E16.01127
G1 X105.627 Y126.929 E16.03338
G1 X105.333 Y126.157 E16.06085
G1 X105.26 Y125.996 E16.06673
G1 X104.81 Y125.309 E16.09405
G1 X104.698 Y125.173 E16.09991
G1 X104.104 Y124.594 E16.1275
G1 X103.956 Y124.494 E16.13344
G1 X103.262 Y124.064 E16.16059
G1 X102.342 Y123.743 E16.193
G1 X101.528 Y123.648 E16.22026
G1 X101.35 Y123.636 E16.22619
G1 X100.524 Y123.719 E16.2538
G1 X100.352 Y123.758 E16.25967
G1 X99.567 Y124.017 E16.28716
G1 X99.412 Y124.102 E16.29304
G1 X98.979 Y124.359 E16.30979
G1 X98.882 Y124.285 E16.31385
G1 X98.515 Y123.989 E16.32953
G1 X98.714 Y123.354 E16.35166
G1 X98.786 Y122.525 E16.37934
G1 X98.787 Y122.346 E16.38529
G1 X98.681 Y121.535 E16.4125
G1 X98.636 Y121.363 E16.41841
G1 X98.356 Y120.591 E16.44572
G1 X98.267 Y120.437 E16.45164
G1 X97.828 Y119.748 E16.47881
G1 X97.14 Y119.059 E16.5112
G1 X96.436 Y118.613 E16.53892
G1 X96.282 Y118.529 E16.54475
G1 X95.515 Y118.25 E16.5719
G1 X95.34 Y118.209 E16.57787
G1 X94.522 Y118.102 E16.60531
G1 X94.344 Y118.11 E16.61124
G1 X93.843 Y118.156 E16.62797
G1 X93.787 Y118.047 E16.63205
G1 X93.643 Y117.75 E16.64303
G1 X93.583 Y117.62 E16.64779
G1 X94.037 Y117.136 E16.66986
G1 X94.458 Y116.425 E16.69734
G1 X94.539 Y116.268 E16.70322
G1 X94.795 Y115.488 E16.73052
G1 X94.832 Y115.315 E16.73641
G1 X94.915 Y114.49 E16.76399
G1 X94.9 Y114.313 E16.76989
G1 X94.804 Y113.502 E16.79706
G1 X94.481 Y112.582 E16.82949
G1 X94.049 Y111.886 E16.85673
G1 X93.948 Y111.74 E16.86264
G1 X93.362 Y111.141 E16.89051
G1 X93.223 Y111.032 E16.89638
G1 X92.537 Y110.584 E16.92363
G1 X92.375 Y110.515 E16.92949
G1 X91.904 Y110.338 E16.94623
G1 X91.901 Y110.219 E16.95019
G1 X91.9 Y109.86 E16.96213
G1 X91.902 Y109.741 E16.96608
G1 X92.521 Y109.502 E16.98815
G1 X93.21 Y109.045 E17.01565
G1 X93.351 Y108.938 E17.02154
G1 X93.916 Y108.35 E17.04866
G1 X94.026 Y108.211 E17.05456
G1 X94.461 Y107.496 E17.08239
G1 X94.525 Y107.333 E17.08822
G1 X94.79 Y106.56 E17.1154
