;FLAVOR:Marlin
;TIME:3652
;Filament used: 0.992801m
;Layer height: 0.1
;MINX:82.2
;MINY:92.811
;MINZ:0.2
;MAXX:137.8
;MAXY:124.835
;MAXZ:13
;Generated with Cura_SteamEngine 4.12.0
M140 S55
M105
M190 S55
M104 S195
M105
M109 S195
M82 ;absolute extrusion mode
; Ender 3 Custom Start G-code
G92 E0 ; Reset Extruder
G28 ; Home all axes
G1 Z2.0 F3000 ; Move Z Axis up little to prevent scratching of Heat Bed
G1 X0.1 Y20 Z0.3 F5000.0 ; Move to start position
G1 X0.1 Y200.0 Z0.3 F1500.0 E15 ; Draw the first line
G1 X0.4 Y200.0 Z0.3 F5000.0 ; Move to side a little
G1 X0.4 Y20 Z0.3 F1500.0 E30 ; Draw the second line
G92 E0 ; Reset Extruder
G1 Z2.0 F3000 ; Move Z Axis up little to prevent scratching of Heat Bed
G1 X5 Y20 Z0.3 F5000.0 ; Move over to prevent blob squish
G92 E0
G92 E0
G1 F1500 E-5
;LAYER_COUNT:129
;LAYER:0
M107
G0 F6000 X87.458 Y95.311 Z0.2
;TYPE:SKIRT
G1 F1500 E0
G1 F1200 X88.046 Y94.783 E0.02628
G1 X88.683 Y94.317 E0.05254
G1 X89.365 Y93.918 E0.07882
G1 X90.083 Y93.59 E0.10507
G1 X90.831 Y93.336 E0.13134
G1 X91.6 Y93.159 E0.15759
G1 X92.384 Y93.061 E0.18387
G1 X93.174 Y93.043 E0.21015
G1 X93.961 Y93.104 E0.23641
G1 X94.738 Y93.245 E0.26267
G1 X95.497 Y93.464 E0.28894
G1 X96.229 Y93.758 E0.31518
G1 X96.817 Y94.06 E0.33717
G1 X97.249 Y94.306 E0.3537
G1 X97.576 Y94.48 E0.36602
G1 X97.825 Y94.604 E0.37527
G1 X98.263 Y94.851 E0.392
G1 X98.377 Y94.897 E0.39609
G1 X98.8 Y95.041 E0.41095
G1 X99.164 Y95.146 E0.42355
G1 X99.352 Y95.191 E0.42998
G1 X99.859 Y95.239 E0.44692
G1 X100.452 Y95.323 E0.46684
G1 X100.832 Y95.397 E0.47971
G1 X101.105 Y95.413 E0.48881
G1 X101.848 Y95.396 E0.51353
G1 X102.064 Y95.372 E0.52076
G1 X102.379 Y95.293 E0.53156
G1 X102.892 Y95.203 E0.54888
G1 X103.467 Y95.132 E0.56815
G1 X103.766 Y95.047 E0.57849
G1 X104.178 Y94.909 E0.59294
G1 X104.393 Y94.824 E0.60063
G1 X104.796 Y94.587 E0.61618
G1 X105.026 Y94.471 E0.62475
G1 X105.467 Y94.232 E0.64143
G1 X105.924 Y93.952 E0.65926
G1 X106.618 Y93.574 E0.68554
G1 X107.346 Y93.268 E0.71181
G1 X108.101 Y93.038 E0.73806
G1 X108.876 Y92.885 E0.76433
G1 X109.662 Y92.811 E0.79059
G1 X110.452 Y92.817 E0.81687
G1 X111.237 Y92.903 E0.84313
G1 X112.009 Y93.068 E0.86939
G1 X112.761 Y93.31 E0.89566
G1 X113.484 Y93.627 E0.92192
G1 X114.171 Y94.015 E0.94816
G1 X114.816 Y94.471 E0.97443
G1 X115.412 Y94.99 E1.00072
G1 X115.952 Y95.566 E1.02698
G1 X116.431 Y96.194 E1.05325
G1 X116.843 Y96.867 E1.0795
G1 X117.09 Y97.358 E1.09778
G1 X119.799 Y103.277 E1.31428
G1 X126.999 Y103.277 E1.55376
G1 X127.668 Y103.306 E1.57603
G1 X128.191 Y103.351 E1.59349
G1 X128.973 Y103.458 E1.61974
G1 X129.54 Y103.588 E1.63909
G1 X130.044 Y103.723 E1.65644
G1 X130.796 Y103.965 E1.68271
G1 X131.335 Y104.194 E1.70219
G1 X131.811 Y104.417 E1.71968
G1 X132.508 Y104.787 E1.74592
G1 X132.98 Y105.094 E1.76465
G1 X133.405 Y105.392 E1.78191
G1 X134.028 Y105.877 E1.80817
G1 X134.442 Y106.263 E1.827
G1 X134.814 Y106.635 E1.8445
G1 X135.344 Y107.221 E1.87078
G1 X135.685 Y107.672 E1.88958
G1 X135.983 Y108.097 E1.90685
G1 X136.404 Y108.766 E1.93314
G1 X136.661 Y109.267 E1.95187
G1 X136.883 Y109.741 E1.96927
G1 X137.181 Y110.472 E1.99553
G1 X137.355 Y111.038 E2.01522
G1 X137.49 Y111.544 E2.03264
G1 X137.655 Y112.317 E2.05893
G1 X137.724 Y112.877 E2.0777
G1 X137.77 Y113.404 E2.09529
G1 X137.8 Y114.082 E2.11787
G1 X137.8 Y117.034 E2.21605
G1 X137.76 Y117.823 E2.24233
G1 X137.641 Y118.603 E2.26857
G1 X137.443 Y119.368 E2.29485
G1 X137.169 Y120.108 E2.3211
G1 X136.821 Y120.817 E2.34737
G1 X136.403 Y121.488 E2.37366
G1 X135.92 Y122.112 E2.3999
G1 X135.377 Y122.685 E2.42616
G1 X134.778 Y123.2 E2.45243
G1 X134.13 Y123.651 E2.47869
G1 X133.439 Y124.035 E2.50499
G1 X132.714 Y124.347 E2.53124
G1 X131.961 Y124.584 E2.55749
G1 X131.187 Y124.743 E2.58378
G1 X130.402 Y124.824 E2.61002
G1 X130 Y124.834 E2.6234
G1 X90 Y124.835 E3.9538
G1 X89.212 Y124.795 E3.98005
G1 X88.431 Y124.676 E4.00632
G1 X87.666 Y124.478 E4.0326
G1 X86.926 Y124.204 E4.05885
G1 X86.217 Y123.856 E4.08512
G1 X85.546 Y123.439 E4.11139
G1 X84.922 Y122.955 E4.13766
G1 X84.349 Y122.412 E4.16392
G1 X83.835 Y121.813 E4.19017
G1 X83.383 Y121.165 E4.21645
G1 X82.999 Y120.475 E4.24271
G1 X82.687 Y119.749 E4.26899
G1 X82.45 Y118.996 E4.29525
G1 X82.291 Y118.222 E4.32153
G1 X82.21 Y117.437 E4.34778
G1 X82.2 Y117.035 E4.36115
G1 X82.2 Y111.077 E4.55932
G1 X82.24 Y110.288 E4.58559
G1 X82.359 Y109.508 E4.61184
G1 X82.507 Y108.91 E4.63232
G1 X85.467 Y98.673 E4.98676
G1 X85.724 Y97.927 E5.013
G1 X86.056 Y97.21 E5.03928
G1 X86.458 Y96.531 E5.06552
G1 X86.927 Y95.895 E5.09181
G1 X87.458 Y95.311 E5.11806
G0 F6000 X87.812 Y95.524
G1 F1200 X88.391 Y95.019 E5.14361
G1 X89.02 Y94.576 E5.1692
G1 X89.692 Y94.201 E5.1948
G1 X90.399 Y93.897 E5.22039
G1 X91.133 Y93.669 E5.24596
G1 X91.887 Y93.518 E5.27153
G1 X92.653 Y93.446 E5.29712
G1 X93.422 Y93.454 E5.3227
G1 X94.186 Y93.542 E5.34828
G1 X94.937 Y93.709 E5.37387
G1 X95.667 Y93.953 E5.39947
G1 X96.619 Y94.408 E5.43456
G1 X97.046 Y94.651 E5.4509
G1 X97.391 Y94.834 E5.46389
G1 X97.647 Y94.962 E5.47341
G1 X98.093 Y95.215 E5.49047
G1 X98.231 Y95.27 E5.49541
G1 X98.668 Y95.419 E5.51076
G1 X99.068 Y95.534 E5.52461
G1 X99.374 Y95.607 E5.53507
G1 X99.803 Y95.635 E5.54937
G1 X100.396 Y95.719 E5.56929
G1 X100.781 Y95.794 E5.58234
G1 X101.101 Y95.814 E5.593
G1 X101.865 Y95.795 E5.61842
G1 X102.078 Y95.772 E5.62554
G1 X102.448 Y95.687 E5.63817
G1 X102.961 Y95.597 E5.65549
G1 X103.543 Y95.526 E5.67499
G1 X103.875 Y95.432 E5.68647
G1 X104.304 Y95.288 E5.70152
G1 X104.524 Y95.201 E5.70939
G1 X104.976 Y94.945 E5.72667
G1 X105.382 Y94.732 E5.74192
G1 X105.657 Y94.584 E5.7523
G1 X106.133 Y94.293 E5.77086
G1 X106.809 Y93.926 E5.79644
G1 X107.519 Y93.631 E5.82202
G1 X108.256 Y93.412 E5.84759
G1 X109.012 Y93.27 E5.87317
G1 X109.779 Y93.207 E5.89877
G1 X110.548 Y93.225 E5.92435
G1 X111.311 Y93.322 E5.94993
G1 X112.06 Y93.497 E5.97552
G1 X112.786 Y93.75 E6.00109
G1 X113.483 Y94.076 E6.02668
G1 X114.141 Y94.473 E6.05224
G1 X114.755 Y94.937 E6.07784
G1 X115.318 Y95.461 E6.10342
G1 X115.823 Y96.041 E6.129
G1 X116.265 Y96.671 E6.15459
G1 X116.726 Y97.524 E6.18684
G1 X119.542 Y103.677 E6.41191
G1 X126.999 Y103.677 E6.65993
G1 X127.633 Y103.704 E6.68103
G1 X128.156 Y103.749 E6.69849
G1 X128.918 Y103.855 E6.72408
G1 X129.437 Y103.974 E6.74179
G1 X129.941 Y104.109 E6.75915
G1 X130.672 Y104.346 E6.7847
G1 X131.165 Y104.556 E6.80253
G1 X131.641 Y104.779 E6.82001
G1 X132.32 Y105.141 E6.8456
G1 X132.75 Y105.421 E6.86267
G1 X133.175 Y105.719 E6.87993
G1 X133.781 Y106.193 E6.90552
G1 X134.16 Y106.545 E6.92273
G1 X134.532 Y106.917 E6.94022
G1 X135.046 Y107.489 E6.9658
G1 X135.358 Y107.902 E6.98302
G1 X135.656 Y108.327 E7.00028
G1 X136.064 Y108.978 E7.02584
G1 X136.298 Y109.436 E7.04294
G1 X136.52 Y109.91 E7.06035
G1 X136.81 Y110.623 E7.08595
G1 X136.969 Y111.141 E7.10397
G1 X137.104 Y111.647 E7.12139
G1 X137.263 Y112.4 E7.14699
G1 X137.326 Y112.912 E7.16415
G1 X137.372 Y113.439 E7.18174
G1 X137.4 Y114.082 E7.20315
G1 X137.4 Y117.034 E7.30133
G1 X137.36 Y117.802 E7.32691
G1 X137.241 Y118.562 E7.3525
G1 X137.043 Y119.305 E7.37807
G1 X136.769 Y120.024 E7.40366
G1 X136.422 Y120.71 E7.42923
G1 X136.006 Y121.357 E7.45482
G1 X135.525 Y121.957 E7.48039
G1 X134.984 Y122.504 E7.50598
G1 X134.389 Y122.992 E7.53158
G1 X133.747 Y123.415 E7.55715
G1 X133.064 Y123.77 E7.58275
G1 X132.349 Y124.051 E7.6083
G1 X131.607 Y124.257 E7.63391
G1 X130.849 Y124.385 E7.65948
G1 X130 Y124.434 E7.68777
G1 X90 Y124.435 E9.01817
G1 X89.232 Y124.395 E9.04375
G1 X88.472 Y124.276 E9.06933
G1 X87.729 Y124.078 E9.09491
G1 X87.01 Y123.804 E9.1205
G1 X86.324 Y123.457 E9.14607
G1 X85.677 Y123.041 E9.17165
G1 X85.077 Y122.56 E9.19723
G1 X84.53 Y122.019 E9.22282
G1 X84.042 Y121.424 E9.24841
G1 X83.619 Y120.782 E9.27399
G1 X83.264 Y120.099 E9.29959
G1 X82.983 Y119.384 E9.32514
G1 X82.777 Y118.643 E9.35072
G1 X82.649 Y117.884 E9.37632
G1 X82.6 Y117.035 E9.40461
G1 X82.6 Y111.077 E9.60277
G1 X82.64 Y110.309 E9.62835
G1 X82.759 Y109.549 E9.65393
G1 X82.891 Y109.022 E9.672
G1 X85.851 Y98.785 E10.02643
G1 X86.103 Y98.058 E10.05203
G1 X86.429 Y97.361 E10.07762
G1 X86.825 Y96.702 E10.10319
G1 X87.288 Y96.087 E10.12879
G1 X87.812 Y95.524 E10.15437
G0 F6000 X88.164 Y95.741
G1 F1200 X88.736 Y95.258 E10.17927
G1 X89.356 Y94.839 E10.20416
G1 X90.017 Y94.489 E10.22904
G1 X90.711 Y94.211 E10.25391
G1 X91.431 Y94.009 E10.27878
G1 X92.169 Y93.885 E10.30367
G1 X92.916 Y93.84 E10.32856
G1 X93.663 Y93.875 E10.35343
G1 X94.402 Y93.99 E10.37831
G1 X95.125 Y94.183 E10.40319
G1 X95.823 Y94.452 E10.42807
G1 X96.421 Y94.756 E10.45039
G1 X96.842 Y94.996 E10.4665
G1 X97.218 Y95.195 E10.48065
G1 X97.468 Y95.32 E10.48995
G1 X97.916 Y95.574 E10.50708
G1 X98.097 Y95.647 E10.51357
G1 X98.547 Y95.801 E10.52939
G1 X98.986 Y95.927 E10.54458
G1 X99.24 Y95.987 E10.55326
G1 X99.747 Y96.031 E10.57019
G1 X100.34 Y96.115 E10.59011
G1 X100.725 Y96.191 E10.60316
G1 X101.099 Y96.214 E10.61562
G1 X101.895 Y96.195 E10.64211
G1 X102.069 Y96.175 E10.64793
G1 X102.517 Y96.081 E10.66316
G1 X103.03 Y95.991 E10.68048
G1 X103.619 Y95.92 E10.70021
G1 X104.004 Y95.811 E10.71352
G1 X104.437 Y95.667 E10.7287
G1 X104.681 Y95.57 E10.73743
G1 X104.757 Y95.519 E10.74047
G1 X105.156 Y95.302 E10.75558
G1 X105.394 Y95.182 E10.76445
G1 X105.864 Y94.927 E10.78223
G1 X106.342 Y94.634 E10.80088
G1 X107 Y94.278 E10.82576
G1 X107.692 Y93.994 E10.85064
G1 X108.41 Y93.786 E10.8755
G1 X109.147 Y93.656 E10.90039
G1 X109.893 Y93.605 E10.92526
G1 X110.641 Y93.634 E10.95016
G1 X111.381 Y93.742 E10.97503
G1 X112.105 Y93.929 E10.9999
G1 X112.806 Y94.192 E11.02481
G1 X113.474 Y94.528 E11.04968
G1 X114.102 Y94.934 E11.07455
G1 X114.684 Y95.405 E11.09945
G1 X115.212 Y95.935 E11.12433
G1 X115.68 Y96.518 E11.1492
G1 X116.084 Y97.148 E11.17409
G1 X116.362 Y97.691 E11.19438
G1 X119.285 Y104.077 E11.42797
G1 X126.999 Y104.077 E11.68454
G1 X127.599 Y104.103 E11.70452
G1 X128.122 Y104.148 E11.72198
G1 X128.863 Y104.252 E11.74686
G1 X129.333 Y104.36 E11.7629
G1 X129.837 Y104.495 E11.78026
G1 X130.548 Y104.727 E11.80513
G1 X130.996 Y104.918 E11.82133
G1 X131.472 Y105.141 E11.83881
G1 X132.131 Y105.494 E11.86368
G1 X132.521 Y105.749 E11.87918
G1 X132.946 Y106.047 E11.89644
G1 X133.534 Y106.508 E11.92129
G1 X133.877 Y106.828 E11.93689
G1 X134.249 Y107.2 E11.95439
G1 X134.749 Y107.757 E11.97929
G1 X135.03 Y108.131 E11.99485
G1 X135.328 Y108.556 E12.01211
G1 X135.725 Y109.191 E12.03702
G1 X135.936 Y109.606 E12.0525
G1 X136.158 Y110.08 E12.06991
G1 X136.439 Y110.773 E12.09478
G1 X136.582 Y111.245 E12.11119
G1 X136.717 Y111.751 E12.1286
G1 X136.871 Y112.483 E12.15348
G1 X136.927 Y112.946 E12.169
G1 X136.973 Y113.473 E12.18659
G1 X137 Y114.082 E12.20687
G1 X137 Y117.034 E12.30505
G1 X136.96 Y117.781 E12.32993
G1 X136.841 Y118.519 E12.35479
G1 X136.643 Y119.241 E12.37969
G1 X136.37 Y119.937 E12.40456
G1 X136.023 Y120.6 E12.42945
G1 X135.608 Y121.223 E12.45435
G1 X135.129 Y121.797 E12.47921
G1 X134.592 Y122.318 E12.5041
G1 X134.002 Y122.777 E12.52896
G1 X133.366 Y123.172 E12.55386
G1 X132.692 Y123.496 E12.57873
G1 X131.987 Y123.746 E12.60361
G1 X131.259 Y123.92 E12.62851
G1 X130.517 Y124.015 E12.65339
G1 X130 Y124.034 E12.6706
G1 X90 Y124.035 E14.001
G1 X89.253 Y123.995 E14.02588
G1 X88.515 Y123.876 E14.05075
G1 X87.793 Y123.678 E14.07565
G1 X87.097 Y123.405 E14.10051
G1 X86.434 Y123.058 E14.1254
G1 X85.811 Y122.643 E14.1503
G1 X85.237 Y122.164 E14.17516
G1 X84.717 Y121.627 E14.20003
G1 X84.257 Y121.037 E14.22491
G1 X83.862 Y120.401 E14.24981
G1 X83.538 Y119.727 E14.27468
G1 X83.288 Y119.022 E14.29956
G1 X83.114 Y118.294 E14.32446
G1 X83.019 Y117.552 E14.34934
G1 X83 Y117.035 E14.36655
G1 X83 Y111.077 E14.56471
G1 X83.04 Y110.33 E14.58959
G1 X83.159 Y109.592 E14.61445
G1 X83.275 Y109.133 E14.6302
G1 X86.235 Y98.896 E14.98463
G1 X86.481 Y98.189 E15.00953
G1 X86.801 Y97.513 E15.03441
G1 X87.191 Y96.875 E15.05928
G1 X87.648 Y96.282 E15.08418
G1 X88.164 Y95.741 E15.10904
G0 F6000 X88.516 Y95.961
G1 F1200 X89.079 Y95.502 E15.1332
G1 X89.689 Y95.108 E15.15736
G1 X90.339 Y94.783 E15.18153
G1 X91.02 Y94.532 E15.20567
G1 X91.725 Y94.357 E15.22983
G1 X92.445 Y94.26 E15.25399
G1 X93.171 Y94.243 E15.27814
G1 X93.895 Y94.307 E15.30232
G1 X94.607 Y94.449 E15.32646
G1 X95.299 Y94.669 E15.35062
G1 X96.223 Y95.103 E15.38457
G1 X96.662 Y95.353 E15.40137
G1 X97.044 Y95.555 E15.41574
G1 X97.29 Y95.678 E15.42489
G1 X97.741 Y95.935 E15.44216
G1 X97.951 Y96.019 E15.44968
G1 X98.447 Y96.188 E15.46711
G1 X98.871 Y96.31 E15.48178
G1 X99.167 Y96.381 E15.49191
G1 X99.298 Y96.384 E15.49627
G1 X99.691 Y96.427 E15.50941
G1 X100.284 Y96.511 E15.52933
G1 X100.672 Y96.588 E15.54249
G1 X101.095 Y96.614 E15.55659
G1 X101.924 Y96.595 E15.58417
G1 X102.237 Y96.561 E15.59464
G1 X102.587 Y96.475 E15.60663
G1 X103.1 Y96.385 E15.62395
G1 X103.7 Y96.313 E15.64405
G1 X104.114 Y96.196 E15.65836
G1 X104.585 Y96.038 E15.67488
G1 X104.93 Y95.901 E15.68723
G1 X105.337 Y95.659 E15.70298
G1 X105.561 Y95.546 E15.71132
G1 X106.061 Y95.275 E15.73024
G1 X106.551 Y94.975 E15.74935
G1 X107.19 Y94.631 E15.77348
G1 X107.863 Y94.358 E15.79764
G1 X108.563 Y94.162 E15.82182
G1 X109.279 Y94.043 E15.84596
G1 X110.005 Y94.004 E15.87014
G1 X110.73 Y94.045 E15.89429
G1 X111.446 Y94.165 E15.91844
G1 X112.145 Y94.363 E15.9426
G1 X112.818 Y94.637 E15.96677
G1 X113.456 Y94.983 E15.99091
G1 X114.053 Y95.397 E16.01507
G1 X114.601 Y95.875 E16.03926
G1 X115.092 Y96.409 E16.06339
G1 X115.523 Y96.994 E16.08755
G1 X115.998 Y97.857 E16.12032
G1 X119.028 Y104.477 E16.36247
G1 X126.999 Y104.477 E16.62758
G1 X127.565 Y104.501 E16.64643
G1 X128.088 Y104.546 E16.66388
G1 X128.807 Y104.648 E16.68804
G1 X129.23 Y104.747 E16.70249
G1 X129.734 Y104.882 E16.71984
G1 X130.424 Y105.108 E16.74399
G1 X130.826 Y105.28 E16.75853
G1 X131.302 Y105.503 E16.77602
G1 X131.942 Y105.847 E16.80018
G1 X132.291 Y106.076 E16.81407
G1 X132.716 Y106.374 E16.83133
G1 X133.287 Y106.823 E16.85549
G1 X133.594 Y107.111 E16.86949
G1 X133.966 Y107.483 E16.88699
G1 X134.45 Y108.024 E16.91113
G1 X134.703 Y108.361 E16.92515
G1 X135.001 Y108.786 E16.94241
G1 X135.385 Y109.403 E16.96658
G1 X135.574 Y109.776 E16.98049
G1 X135.796 Y110.25 E16.9979
G1 X136.067 Y110.923 E17.02203
G1 X136.196 Y111.348 E17.0368
G1 X136.331 Y111.854 E17.05422
G1 X136.479 Y112.565 E17.07838
G1 X136.529 Y112.981 E17.09231
G1 X136.575 Y113.508 E17.10991
G1 X136.6 Y114.082 E17.12902
G1 X136.6 Y117.034 E17.2272
G1 X136.56 Y117.759 E17.25135
G1 X136.441 Y118.476 E17.27552
G1 X136.243 Y119.175 E17.29969
G1 X135.97 Y119.848 E17.32384
G1 X135.625 Y120.487 E17.348
G1 X135.211 Y121.084 E17.37216
G1 X134.735 Y121.632 E17.3963
G1 X134.201 Y122.125 E17.42048
G1 X133.616 Y122.555 E17.44462
G1 X132.987 Y122.919 E17.46879
G1 X132.322 Y123.212 E17.49296
G1 X131.629 Y123.43 E17.51713
G1 X130.917 Y123.57 E17.54126
G1 X130 Y123.634 E17.57184
G1 X90 Y123.635 E18.90224
G1 X89.275 Y123.595 E18.92639
G1 X88.558 Y123.476 E18.95057
G1 X87.859 Y123.278 E18.97473
G1 X87.186 Y123.005 E18.99888
G1 X86.547 Y122.66 E19.02304
G1 X85.95 Y122.246 E19.0472
G1 X85.402 Y121.77 E19.07134
G1 X84.91 Y121.236 E19.09549
G1 X84.479 Y120.651 E19.11966
G1 X84.115 Y120.022 E19.14383
G1 X83.822 Y119.358 E19.16797
G1 X83.604 Y118.665 E19.19213
G1 X83.464 Y117.952 E19.2163
G1 X83.4 Y117.035 E19.24688
G1 X83.4 Y111.077 E19.44504
G1 X83.44 Y110.352 E19.46919
G1 X83.559 Y109.635 E19.49336
G1 X83.66 Y109.244 E19.50679
G1 X86.62 Y99.007 E19.86123
G1 X86.86 Y98.321 E19.8854
G1 X87.173 Y97.666 E19.90954
G1 X87.557 Y97.049 E19.93372
G1 X88.006 Y96.479 E19.95785
G1 X88.516 Y95.961 E19.98203
G0 F6000 X88.364 Y96.678
G1 F1200 X88.866 Y96.184 E20.00545
G1 X89.42 Y95.75 E20.02886
G1 X90.02 Y95.381 E20.05229
G1 X90.658 Y95.083 E20.07571
G1 X91.325 Y94.859 E20.09911
G1 X92.014 Y94.713 E20.12253
G1 X92.714 Y94.645 E20.14593
G1 X93.418 Y94.657 E20.16934
G1 X94.116 Y94.749 E20.19276
G1 X94.799 Y94.919 E20.21617
G1 X95.459 Y95.166 E20.23961
G1 X96.026 Y95.451 E20.26072
G1 X96.478 Y95.708 E20.27801
G1 X96.848 Y95.905 E20.29195
G1 X97.111 Y96.036 E20.30172
G1 X97.566 Y96.296 E20.31915
G1 X97.81 Y96.394 E20.3279
G1 X98.308 Y96.564 E20.3454
G1 X98.769 Y96.697 E20.36136
G1 X99.129 Y96.782 E20.37366
